;FLAVOR:UltiGCode
;TIME:2445
;MATERIAL:4389
;MATERIAL2:0
;NOZZLE_DIAMETER:0.4
;Generated with Cura_SteamEngine master

;LAYER_COUNT:25
;LAYER:0
M107
G0 F4500 X83.969 Y83.048 Z0.27
;TYPE:SKIRT
G1 F1800 X84.587 Y82.463 E0.08042
G1 X87.191 Y80.251 E0.40329
G1 X87.869 Y79.736 E0.48375
G1 X90.719 Y77.803 E0.80918
G1 X91.448 Y77.364 E0.8896
G1 X94.484 Y75.753 E1.21439
G1 X95.261 Y75.393 E1.29531
G1 X98.45 Y74.123 E1.61969
G1 X99.255 Y73.852 E1.69996
G1 X102.576 Y72.929 E2.02569
G1 X103.411 Y72.745 E2.10649
G1 X106.784 Y72.192 E2.4295
G1 X107.63 Y72.1 E2.50991
G1 X111.068 Y71.913 E2.83529
G1 X111.922 Y71.913 E2.91599
G1 X115.358 Y72.099 E3.24117
G1 X116.203 Y72.19 E3.32148
G1 X119.579 Y72.742 E3.64475
G1 X120.416 Y72.926 E3.72573
G1 X123.735 Y73.848 E4.05126
G1 X124.538 Y74.119 E4.13134
G1 X127.725 Y75.387 E4.45548
G1 X128.504 Y75.747 E4.53657
G1 X131.543 Y77.359 E4.86166
G1 X132.27 Y77.797 E4.94187
G1 X135.117 Y79.726 E5.26685
G1 X135.798 Y80.243 E5.34765
G1 X138.405 Y82.457 E5.67086
G1 X139.022 Y83.041 E5.75115
G1 X141.394 Y85.543 E6.07695
G1 X141.95 Y86.197 E6.15807
G1 X144.027 Y88.931 E6.48253
G1 X144.501 Y89.63 E6.56234
G1 X146.267 Y92.56 E6.88563
G1 X146.669 Y93.318 E6.96671
G1 X148.116 Y96.445 E7.29232
G1 X148.432 Y97.237 E7.3729
G1 X149.533 Y100.504 E7.69869
G1 X149.76 Y101.323 E7.77901
G1 X150.496 Y104.661 E8.10203
G1 X150.635 Y105.508 E8.18314
G1 X151.006 Y108.931 E8.50851
G1 X151.052 Y109.778 E8.58866
G1 X151.053 Y113.208 E8.9128
G1 X151.007 Y114.059 E8.99334
G1 X150.636 Y117.482 E9.3187
G1 X150.498 Y118.325 E9.39943
G1 X149.763 Y121.665 E9.72261
G1 X149.535 Y122.487 E9.80322
G1 X148.435 Y125.752 E10.1288
G1 X148.121 Y126.54 E10.20897
G1 X146.678 Y129.664 E10.53416
G1 X146.277 Y130.422 E10.61519
G1 X144.511 Y133.357 E10.93889
G1 X144.036 Y134.058 E11.01891
G1 X141.96 Y136.793 E11.34339
G1 X141.402 Y137.45 E11.42485
G1 X139.031 Y139.951 E11.75052
G1 X138.416 Y140.534 E11.8306
G1 X135.811 Y142.748 E12.15367
G1 X135.131 Y143.264 E12.23433
G1 X132.281 Y145.197 E12.55976
G1 X131.552 Y145.636 E12.64018
G1 X128.516 Y147.247 E12.96497
G1 X127.739 Y147.607 E13.0459
G1 X124.55 Y148.877 E13.37028
G1 X123.745 Y149.148 E13.45054
G1 X120.424 Y150.071 E13.77627
G1 X119.589 Y150.255 E13.85707
G1 X116.216 Y150.808 E14.18008
G1 X115.37 Y150.9 E14.2605
G1 X111.932 Y151.087 E14.58587
G1 X111.078 Y151.087 E14.66657
G1 X107.642 Y150.901 E14.99175
G1 X106.797 Y150.81 E15.07206
G1 X103.421 Y150.258 E15.39533
G1 X102.584 Y150.074 E15.47632
G1 X99.265 Y149.152 E15.80184
G1 X98.462 Y148.881 E15.88193
G1 X95.275 Y147.613 E16.20606
G1 X94.496 Y147.253 E16.28716
G1 X91.457 Y145.641 E16.61224
G1 X90.729 Y145.203 E16.69253
G1 X87.881 Y143.273 E17.01764
G1 X87.201 Y142.756 E17.09837
G1 X84.593 Y140.541 E17.42172
G1 X83.977 Y139.958 E17.50187
G1 X81.607 Y137.459 E17.82733
G1 X81.05 Y136.804 E17.90859
G1 X78.973 Y134.07 E18.23305
G1 X78.497 Y133.368 E18.3132
G1 X76.73 Y130.433 E18.63694
G1 X76.331 Y129.68 E18.71747
G1 X74.884 Y126.555 E19.04291
G1 X74.567 Y125.76 E19.12379
G1 X73.467 Y122.495 E19.44937
G1 X73.24 Y121.676 E19.52968
G1 X72.504 Y118.336 E19.85289
G1 X72.365 Y117.49 E19.93391
G1 X71.994 Y114.069 E20.25909
G1 X71.948 Y113.222 E20.33925
G1 X71.947 Y109.792 E20.66338
G1 X71.993 Y108.941 E20.74392
G1 X72.364 Y105.518 E21.06929
G1 X72.502 Y104.675 E21.15001
G1 X73.237 Y101.335 E21.47319
G1 X73.465 Y100.513 E21.5538
G1 X74.565 Y97.248 E21.87939
G1 X74.878 Y96.46 E21.95951
G1 X76.322 Y93.333 E22.285
G1 X76.726 Y92.572 E22.36642
G1 X78.492 Y89.64 E22.68987
G1 X78.964 Y88.943 E22.76942
G1 X81.039 Y86.208 E23.09384
G1 X81.597 Y85.551 E23.1753
G1 X83.969 Y83.048 E23.50117
G0 F4500 X84.223 Y83.289
G1 F1800 X84.813 Y82.73 E23.57798
G1 X87.417 Y80.518 E23.90086
G1 X88.065 Y80.025 E23.9778
G1 X90.915 Y78.092 E24.30323
G1 X91.612 Y77.673 E24.38008
G1 X94.648 Y76.062 E24.70487
G1 X95.391 Y75.718 E24.78225
G1 X98.58 Y74.448 E25.10662
G1 X99.349 Y74.189 E25.18331
G1 X102.67 Y73.266 E25.50904
G1 X103.468 Y73.09 E25.58626
G1 X106.841 Y72.537 E25.90926
G1 X107.649 Y72.449 E25.98607
G1 X111.087 Y72.262 E26.31144
G1 X111.903 Y72.262 E26.38855
G1 X115.339 Y72.448 E26.71373
G1 X116.146 Y72.536 E26.79044
G1 X119.522 Y73.088 E27.11371
G1 X120.322 Y73.264 E27.19112
G1 X123.641 Y74.186 E27.51664
G1 X124.409 Y74.444 E27.59321
G1 X127.596 Y75.712 E27.91734
G1 X128.34 Y76.056 E27.9948
G1 X131.379 Y77.668 E28.31988
G1 X132.074 Y78.086 E28.39653
G1 X134.921 Y80.015 E28.72151
G1 X135.571 Y80.509 E28.79866
G1 X138.178 Y82.723 E29.12187
G1 X138.768 Y83.282 E29.19868
G1 X141.14 Y85.784 E29.52448
G1 X141.671 Y86.409 E29.60199
G1 X143.748 Y89.143 E29.92645
G1 X144.201 Y89.81 E30.00264
G1 X145.967 Y92.74 E30.32593
G1 X146.351 Y93.465 E30.40346
G1 X147.798 Y96.592 E30.72907
G1 X148.1 Y97.349 E30.80609
G1 X149.201 Y100.616 E31.13188
G1 X149.418 Y101.399 E31.20866
G1 X150.154 Y104.737 E31.53168
G1 X150.287 Y105.546 E31.60916
G1 X150.658 Y108.969 E31.93452
G1 X150.702 Y109.778 E32.01109
G1 X150.703 Y113.208 E32.33522
G1 X150.659 Y114.021 E32.41216
G1 X150.288 Y117.444 E32.73753
G1 X150.156 Y118.25 E32.81471
G1 X149.421 Y121.59 E33.13789
G1 X149.203 Y122.376 E33.21498
G1 X148.103 Y125.641 E33.54056
G1 X147.803 Y126.393 E33.61707
G1 X146.36 Y129.517 E33.94226
G1 X145.977 Y130.242 E34.01974
G1 X144.211 Y133.177 E34.34344
G1 X143.757 Y133.847 E34.41992
G1 X141.681 Y136.582 E34.7444
G1 X141.148 Y137.209 E34.82217
G1 X138.777 Y139.71 E35.14784
G1 X138.189 Y140.267 E35.22438
G1 X135.584 Y142.481 E35.54745
G1 X134.935 Y142.975 E35.62453
G1 X132.085 Y144.908 E35.94995
G1 X131.388 Y145.327 E36.02681
G1 X128.352 Y146.938 E36.3516
G1 X127.609 Y147.282 E36.42897
G1 X124.42 Y148.552 E36.75335
G1 X123.651 Y148.811 E36.83003
G1 X120.33 Y149.734 E37.15576
G1 X119.532 Y149.91 E37.23299
G1 X116.159 Y150.463 E37.55599
G1 X115.351 Y150.551 E37.6328
G1 X111.913 Y150.738 E37.95817
G1 X111.097 Y150.738 E38.03528
G1 X107.661 Y150.552 E38.36046
G1 X106.854 Y150.464 E38.43717
G1 X103.478 Y149.912 E38.76044
G1 X102.678 Y149.736 E38.83785
G1 X99.359 Y148.814 E39.16337
G1 X98.591 Y148.556 E39.23993
G1 X95.404 Y147.288 E39.56407
G1 X94.66 Y146.944 E39.64152
G1 X91.621 Y145.332 E39.96661
G1 X90.926 Y144.913 E40.0433
G1 X88.078 Y142.983 E40.36841
G1 X87.428 Y142.49 E40.44551
G1 X84.82 Y140.275 E40.76886
G1 X84.231 Y139.717 E40.84553
G1 X81.861 Y137.218 E41.171
G1 X81.329 Y136.592 E41.24863
G1 X79.252 Y133.858 E41.57309
G1 X78.797 Y133.187 E41.64971
G1 X77.03 Y130.252 E41.97345
G1 X76.649 Y129.533 E42.05035
G1 X75.202 Y126.408 E42.37578
G1 X74.899 Y125.649 E42.45301
G1 X73.799 Y122.384 E42.77859
G1 X73.581 Y121.6 E42.85549
G1 X72.845 Y118.26 E43.17869
G1 X72.713 Y117.452 E43.25606
G1 X72.342 Y114.031 E43.58124
G1 X72.298 Y113.222 E43.65781
G1 X72.297 Y109.792 E43.98194
G1 X72.341 Y108.979 E44.05888
G1 X72.712 Y105.556 E44.38425
G1 X72.844 Y104.75 E44.46143
G1 X73.579 Y101.41 E44.78461
G1 X73.797 Y100.624 E44.86169
G1 X74.897 Y97.359 E45.18728
G1 X75.196 Y96.607 E45.26375
G1 X76.64 Y93.48 E45.58924
G1 X77.026 Y92.752 E45.66711
G1 X78.792 Y89.82 E45.99056
G1 X79.243 Y89.155 E46.06649
G1 X81.318 Y86.42 E46.39092
G1 X81.851 Y85.792 E46.46875
G1 X84.223 Y83.289 E46.79463
G0 F4500 X84.477 Y83.53
G1 F1800 X85.04 Y82.997 E46.86789
G1 X87.644 Y80.785 E47.19077
G1 X88.262 Y80.315 E47.26414
G1 X91.112 Y78.382 E47.58957
G1 X91.776 Y77.982 E47.66282
G1 X94.812 Y76.371 E47.98761
G1 X95.52 Y76.043 E48.06135
G1 X98.709 Y74.773 E48.38573
G1 X99.443 Y74.526 E48.45892
G1 X102.764 Y73.603 E48.78465
G1 X103.524 Y73.436 E48.85818
G1 X106.897 Y72.883 E49.18118
G1 X107.668 Y72.799 E49.25447
G1 X111.106 Y72.612 E49.57984
G1 X111.884 Y72.611 E49.65337
G1 X115.32 Y72.797 E49.97854
G1 X116.09 Y72.881 E50.05174
G1 X119.466 Y73.433 E50.37501
G1 X120.228 Y73.601 E50.44875
G1 X123.547 Y74.523 E50.77427
G1 X124.279 Y74.769 E50.84724
G1 X127.466 Y76.037 E51.17138
G1 X128.176 Y76.366 E51.24533
G1 X131.215 Y77.978 E51.57041
G1 X131.878 Y78.376 E51.64349
G1 X134.725 Y80.305 E51.96847
G1 X135.345 Y80.776 E52.04205
G1 X137.952 Y82.99 E52.36527
G1 X138.514 Y83.523 E52.43846
G1 X140.886 Y86.025 E52.76426
G1 X141.392 Y86.621 E52.83815
G1 X143.469 Y89.355 E53.16261
G1 X143.901 Y89.991 E53.23527
G1 X145.667 Y92.921 E53.55856
G1 X146.034 Y93.612 E53.63249
G1 X147.481 Y96.739 E53.9581
G1 X147.768 Y97.461 E54.03152
G1 X148.869 Y100.728 E54.35731
G1 X149.077 Y101.474 E54.4305
G1 X149.813 Y104.812 E54.75352
G1 X149.939 Y105.584 E54.82744
G1 X150.31 Y109.007 E55.1528
G1 X150.352 Y109.778 E55.22577
G1 X150.353 Y113.208 E55.54991
G1 X150.311 Y113.983 E55.62325
G1 X149.94 Y117.406 E55.94862
G1 X149.814 Y118.175 E56.02226
G1 X149.079 Y121.515 E56.34544
G1 X148.871 Y122.264 E56.4189
G1 X147.771 Y125.529 E56.74448
G1 X147.486 Y126.247 E56.81748
G1 X146.043 Y129.371 E57.14267
G1 X145.677 Y130.061 E57.21648
G1 X143.911 Y132.996 E57.54018
G1 X143.478 Y133.635 E57.61312
G1 X141.402 Y136.37 E57.9376
G1 X140.894 Y136.968 E58.01175
G1 X138.523 Y139.469 E58.33742
G1 X137.963 Y140 E58.41035
G1 X135.358 Y142.214 E58.73342
G1 X134.738 Y142.685 E58.807
G1 X131.888 Y144.618 E59.13243
G1 X131.224 Y145.018 E59.20568
G1 X128.188 Y146.629 E59.53048
G1 X127.48 Y146.957 E59.60421
G1 X124.291 Y148.227 E59.92859
G1 X123.557 Y148.474 E60.00178
G1 X120.236 Y149.397 E60.32751
G1 X119.476 Y149.564 E60.40104
G1 X116.103 Y150.117 E60.72404
G1 X115.332 Y150.201 E60.79734
G1 X111.894 Y150.388 E61.12271
G1 X111.116 Y150.389 E61.19623
G1 X107.68 Y150.203 E61.52141
G1 X106.91 Y150.119 E61.5946
G1 X103.534 Y149.567 E61.91787
G1 X102.772 Y149.399 E61.99161
G1 X99.453 Y148.477 E62.31713
G1 X98.721 Y148.231 E62.39011
G1 X95.534 Y146.963 E62.71424
G1 X94.824 Y146.634 E62.78819
G1 X91.785 Y145.022 E63.11328
G1 X91.122 Y144.624 E63.18635
G1 X88.274 Y142.694 E63.51146
G1 X87.654 Y142.223 E63.58504
G1 X85.046 Y140.008 E63.90839
G1 X84.485 Y139.476 E63.98145
G1 X82.115 Y136.977 E64.30692
G1 X81.608 Y136.38 E64.38094
G1 X79.531 Y133.646 E64.7054
G1 X79.097 Y133.007 E64.7784
G1 X77.33 Y130.072 E65.10214
G1 X76.966 Y129.386 E65.17553
G1 X75.519 Y126.261 E65.50096
G1 X75.231 Y125.537 E65.5746
G1 X74.131 Y122.272 E65.90018
G1 X73.923 Y121.525 E65.97345
G1 X73.187 Y118.185 E66.29666
G1 X73.061 Y117.415 E66.37039
G1 X72.69 Y113.994 E66.69557
G1 X72.648 Y113.222 E66.76863
G1 X72.647 Y109.792 E67.09277
G1 X72.689 Y109.017 E67.16611
G1 X73.06 Y105.594 E67.49148
G1 X73.186 Y104.825 E67.56512
G1 X73.921 Y101.485 E67.8883
G1 X74.129 Y100.736 E67.96176
G1 X75.229 Y97.471 E68.28734
G1 X75.514 Y96.754 E68.36026
G1 X76.958 Y93.627 E68.68574
G1 X77.326 Y92.933 E68.75998
G1 X79.092 Y90.001 E69.08343
G1 X79.522 Y89.366 E69.1559
G1 X81.597 Y86.631 E69.48032
G1 X82.105 Y86.033 E69.55447
G1 X84.477 Y83.53 E69.88034
G0 F4500 X84.731 Y83.77
G1 F1800 X85.266 Y83.263 E69.95
G1 X87.87 Y81.051 E70.27287
G1 X88.458 Y80.605 E70.34262
G1 X91.308 Y78.672 E70.66805
G1 X91.94 Y78.291 E70.73778
G1 X94.976 Y76.68 E71.06257
G1 X95.65 Y76.368 E71.13276
G1 X98.839 Y75.098 E71.45714
G1 X99.536 Y74.863 E71.52665
G1 X102.857 Y73.94 E71.85238
G1 X103.581 Y73.781 E71.92243
G1 X106.954 Y73.228 E72.24543
G1 X107.687 Y73.148 E72.31511
G1 X111.125 Y72.961 E72.64048
G1 X111.865 Y72.961 E72.71041
G1 X115.301 Y73.147 E73.03559
G1 X116.033 Y73.226 E73.10517
G1 X119.409 Y73.778 E73.42843
G1 X120.135 Y73.938 E73.49869
G1 X123.454 Y74.86 E73.82421
G1 X124.15 Y75.094 E73.8936
G1 X127.337 Y76.362 E74.21773
G1 X128.012 Y76.675 E74.28805
G1 X131.051 Y78.287 E74.61313
G1 X131.681 Y78.666 E74.68261
G1 X134.528 Y80.595 E75.00759
G1 X135.118 Y81.043 E75.0776
G1 X137.725 Y83.257 E75.40081
G1 X138.26 Y83.763 E75.4704
G1 X140.632 Y86.265 E75.79621
G1 X141.114 Y86.832 E75.86653
G1 X143.191 Y89.566 E76.19099
G1 X143.601 Y90.172 E76.26014
G1 X145.367 Y93.102 E76.58343
G1 X145.716 Y93.759 E76.65373
G1 X147.163 Y96.886 E76.97934
G1 X147.437 Y97.572 E77.04914
G1 X148.538 Y100.839 E77.37493
G1 X148.735 Y101.549 E77.44456
G1 X149.471 Y104.887 E77.76758
G1 X149.591 Y105.622 E77.83796
G1 X149.962 Y109.045 E78.16333
G1 X150.002 Y109.778 E78.2327
G1 X150.003 Y113.208 E78.55683
G1 X149.963 Y113.945 E78.62658
G1 X149.592 Y117.368 E78.95195
G1 X149.473 Y118.1 E79.02203
G1 X148.738 Y121.44 E79.34521
G1 X148.54 Y122.152 E79.41505
G1 X147.44 Y125.417 E79.74063
G1 X147.168 Y126.1 E79.81011
G1 X145.725 Y129.224 E80.1353
G1 X145.377 Y129.881 E80.20556
G1 X143.611 Y132.816 E80.52925
G1 X143.199 Y133.423 E80.59858
G1 X141.123 Y136.158 E80.92306
G1 X140.64 Y136.728 E80.99366
G1 X138.269 Y139.229 E81.31933
G1 X137.736 Y139.733 E81.38865
G1 X135.131 Y141.947 E81.71172
G1 X134.542 Y142.395 E81.78166
G1 X131.692 Y144.328 E82.10708
G1 X131.06 Y144.709 E82.17682
G1 X128.024 Y146.32 E82.50161
G1 X127.35 Y146.632 E82.5718
G1 X124.161 Y147.902 E82.89618
G1 X123.464 Y148.137 E82.96569
G1 X120.143 Y149.06 E83.29142
G1 X119.419 Y149.219 E83.36147
G1 X116.046 Y149.772 E83.68447
G1 X115.313 Y149.852 E83.75415
G1 X111.875 Y150.039 E84.07952
G1 X111.135 Y150.039 E84.14945
G1 X107.699 Y149.853 E84.47463
G1 X106.967 Y149.774 E84.54421
G1 X103.591 Y149.222 E84.86747
G1 X102.865 Y149.062 E84.93773
G1 X99.546 Y148.14 E85.26325
G1 X98.85 Y147.906 E85.33264
G1 X95.663 Y146.638 E85.65677
G1 X94.988 Y146.325 E85.72708
G1 X91.949 Y144.713 E86.05217
G1 X91.318 Y144.334 E86.12173
G1 X88.47 Y142.404 E86.44684
G1 X87.881 Y141.956 E86.51677
G1 X85.273 Y139.741 E86.84012
G1 X84.739 Y139.235 E86.90964
G1 X82.369 Y136.736 E87.23511
G1 X81.886 Y136.169 E87.3055
G1 X79.809 Y133.435 E87.62996
G1 X79.397 Y132.826 E87.69944
G1 X77.63 Y129.891 E88.02319
G1 X77.284 Y129.239 E88.09294
G1 X75.837 Y126.114 E88.41837
G1 X75.562 Y125.425 E88.48848
G1 X74.462 Y122.16 E88.81406
G1 X74.265 Y121.45 E88.88369
G1 X73.529 Y118.11 E89.20689
G1 X73.409 Y117.377 E89.27708
G1 X73.038 Y113.956 E89.60226
G1 X72.998 Y113.222 E89.67173
G1 X72.997 Y109.792 E89.99587
G1 X73.037 Y109.055 E90.06561
G1 X73.408 Y105.632 E90.39098
G1 X73.527 Y104.9 E90.46106
G1 X74.262 Y101.56 E90.78425
G1 X74.46 Y100.848 E90.85408
G1 X75.56 Y97.583 E91.17967
G1 X75.832 Y96.901 E91.24905
G1 X77.276 Y93.774 E91.57454
G1 X77.626 Y93.114 E91.64514
G1 X79.392 Y90.182 E91.96859
G1 X79.801 Y89.578 E92.03752
G1 X81.876 Y86.843 E92.36195
G1 X82.359 Y86.273 E92.43255
G1 X84.731 Y83.77 E92.75842
G0 F4500 X84.985 Y84.011
G1 F1800 X85.493 Y83.53 E92.82453
G1 X88.097 Y81.318 E93.14741
G1 X88.654 Y80.894 E93.21356
G1 X91.504 Y78.961 E93.53899
G1 X92.104 Y78.6 E93.60516
G1 X95.14 Y76.989 E93.92995
G1 X95.779 Y76.693 E93.9965
G1 X98.968 Y75.423 E94.32088
G1 X99.63 Y75.2 E94.38689
G1 X102.951 Y74.277 E94.71262
G1 X103.637 Y74.126 E94.779
G1 X107.01 Y73.573 E95.10201
G1 X107.706 Y73.498 E95.16816
G1 X111.144 Y73.311 E95.49353
G1 X111.846 Y73.31 E95.55987
G1 X115.282 Y73.496 E95.88505
G1 X115.977 Y73.572 E95.95112
G1 X119.353 Y74.124 E96.27439
G1 X120.041 Y74.275 E96.34095
G1 X123.36 Y75.197 E96.66647
G1 X124.021 Y75.42 E96.7324
G1 X127.208 Y76.688 E97.05653
G1 X127.848 Y76.984 E97.12316
G1 X130.887 Y78.596 E97.44825
G1 X131.485 Y78.956 E97.51421
G1 X134.332 Y80.885 E97.83919
G1 X134.891 Y81.31 E97.90555
G1 X137.498 Y83.524 E98.22877
G1 X138.006 Y84.004 E98.29481
G1 X140.378 Y86.506 E98.62062
G1 X140.835 Y87.044 E98.68733
G1 X142.912 Y89.778 E99.01179
G1 X143.302 Y90.353 E99.07745
G1 X145.068 Y93.283 E99.40074
G1 X145.398 Y93.906 E99.46736
G1 X146.845 Y97.033 E99.79296
G1 X147.105 Y97.684 E99.85921
G1 X148.206 Y100.951 E100.185
G1 X148.393 Y101.625 E100.2511
G1 X149.129 Y104.963 E100.57412
G1 X149.243 Y105.659 E100.64077
G1 X149.614 Y109.082 E100.96613
G1 X149.652 Y109.778 E101.032
G1 X149.653 Y113.208 E101.35614
G1 X149.615 Y113.908 E101.42239
G1 X149.244 Y117.331 E101.74775
G1 X149.131 Y118.025 E101.8142
G1 X148.396 Y121.365 E102.13738
G1 X148.208 Y122.04 E102.2036
G1 X147.108 Y125.305 E102.52918
G1 X146.85 Y125.953 E102.59509
G1 X145.407 Y129.077 E102.92028
G1 X145.077 Y129.7 E102.98691
G1 X143.311 Y132.635 E103.3106
G1 X142.921 Y133.212 E103.37641
G1 X140.845 Y135.947 E103.70089
G1 X140.386 Y136.487 E103.76787
G1 X138.015 Y138.988 E104.09354
G1 X137.509 Y139.467 E104.15938
G1 X134.904 Y141.681 E104.48245
G1 X134.346 Y142.106 E104.54874
G1 X131.496 Y144.039 E104.87417
