;FLAVOR:UltiGCode
;TIME:6618
;MATERIAL:11757
;MATERIAL2:0
;NOZZLE_DIAMETER:0.4
;Generated with Cura_SteamEngine master

;LAYER_COUNT:25
;LAYER:0
M107
G0 F4500 X75.376 Y73.682 Z0.27
;TYPE:SKIRT
G1 F1800 X75.696 Y73.379 E0.04165
G1 X77.494 Y71.769 E0.26972
G1 X77.812 Y71.499 E0.30914
G1 X79.686 Y69.992 E0.53639
G1 X80.028 Y69.732 E0.57699
G1 X81.975 Y68.334 E0.8035
G1 X82.331 Y68.093 E0.84412
G1 X84.369 Y66.792 E1.07261
G1 X84.725 Y66.578 E1.11187
G1 X86.805 Y65.4 E1.33776
G1 X87.188 Y65.197 E1.37872
G1 X89.348 Y64.126 E1.60656
G1 X89.734 Y63.947 E1.64676
G1 X91.945 Y62.996 E1.87421
G1 X92.341 Y62.838 E1.9145
G1 X94.608 Y62.005 E2.14274
G1 X95.013 Y61.869 E2.18311
G1 X97.306 Y61.165 E2.40978
G1 X97.72 Y61.05 E2.45039
G1 X100.061 Y60.469 E2.67832
G1 X100.477 Y60.378 E2.71856
G1 X102.832 Y59.927 E2.94516
G1 X103.248 Y59.858 E2.98501
G1 X105.636 Y59.532 E3.21276
G1 X106.061 Y59.486 E3.25316
G1 X108.452 Y59.291 E3.47986
G1 X108.88 Y59.268 E3.52037
G1 X111.29 Y59.203 E3.74819
G1 X111.714 Y59.203 E3.78826
G1 X114.124 Y59.268 E4.01609
G1 X114.553 Y59.291 E4.05669
G1 X116.941 Y59.486 E4.28311
G1 X117.366 Y59.533 E4.32351
G1 X119.759 Y59.86 E4.55175
G1 X120.175 Y59.928 E4.59159
G1 X122.529 Y60.379 E4.81809
G1 X122.944 Y60.47 E4.85823
G1 X125.277 Y61.049 E5.08539
G1 X125.692 Y61.164 E5.12609
G1 X127.988 Y61.869 E5.35306
G1 X128.393 Y62.006 E5.39346
G1 X130.659 Y62.839 E5.62161
G1 X131.053 Y62.995 E5.66165
G1 X133.267 Y63.947 E5.8894
G1 X133.654 Y64.127 E5.92973
G1 X135.81 Y65.196 E6.15714
G1 X136.191 Y65.398 E6.19789
G1 X138.274 Y66.577 E6.42408
G1 X138.635 Y66.794 E6.46389
G1 X140.671 Y68.095 E6.69221
G1 X141.023 Y68.333 E6.73237
G1 X142.971 Y69.731 E6.95895
G1 X143.314 Y69.992 E6.99968
G1 X145.188 Y71.499 E7.22693
G1 X145.506 Y71.769 E7.26636
G1 X147.304 Y73.379 E7.49443
G1 X147.623 Y73.681 E7.53594
G1 X149.319 Y75.379 E7.76273
G1 X149.609 Y75.685 E7.80257
G1 X151.222 Y77.483 E8.03084
G1 X151.496 Y77.806 E8.07086
G1 X152.998 Y79.673 E8.2973
G1 X153.257 Y80.013 E8.33769
G1 X154.66 Y81.965 E8.56486
G1 X154.903 Y82.324 E8.60583
G1 X156.204 Y84.362 E8.83432
G1 X156.42 Y84.721 E8.87391
G1 X157.599 Y86.805 E9.10018
G1 X157.798 Y87.181 E9.14038
G1 X158.869 Y89.338 E9.36796
G1 X159.049 Y89.726 E9.40838
G1 X160 Y91.935 E9.63565
G1 X160.16 Y92.337 E9.67654
G1 X160.992 Y94.605 E9.90483
G1 X161.125 Y95 E9.94422
G1 X161.83 Y97.29 E10.17065
G1 X161.946 Y97.707 E10.21155
G1 X162.527 Y100.044 E10.43912
G1 X162.619 Y100.46 E10.47938
G1 X163.072 Y102.821 E10.70657
G1 X163.14 Y103.238 E10.74649
G1 X163.466 Y105.621 E10.97378
G1 X163.513 Y106.046 E11.01419
G1 X163.709 Y108.444 E11.24156
G1 X163.732 Y108.873 E11.28216
G1 X163.797 Y111.28 E11.5097
G1 X163.797 Y111.705 E11.54986
G1 X163.732 Y114.12 E11.77816
G1 X163.709 Y114.549 E11.81876
G1 X163.514 Y116.938 E12.04527
G1 X163.468 Y117.361 E12.08548
G1 X163.142 Y119.752 E12.31352
G1 X163.074 Y120.167 E12.35326
G1 X162.623 Y122.526 E12.58023
G1 X162.53 Y122.95 E12.62125
G1 X161.949 Y125.283 E12.84845
G1 X161.835 Y125.691 E12.88848
G1 X161.128 Y127.994 E13.11614
G1 X160.992 Y128.398 E13.15642
G1 X160.163 Y130.655 E13.38364
G1 X160.005 Y131.052 E13.42402
G1 X159.05 Y133.272 E13.6524
G1 X158.87 Y133.661 E13.6929
G1 X157.8 Y135.817 E13.92036
G1 X157.599 Y136.195 E13.96081
G1 X156.42 Y138.278 E14.187
G1 X156.204 Y138.637 E14.22659
G1 X154.904 Y140.673 E14.45487
G1 X154.662 Y141.03 E14.49563
G1 X153.263 Y142.977 E14.72219
G1 X153.005 Y143.317 E14.76253
G1 X151.498 Y145.191 E14.98978
G1 X151.223 Y145.515 E15.02994
G1 X149.608 Y147.315 E15.25847
G1 X149.319 Y147.62 E15.29817
G1 X147.625 Y149.317 E15.52477
G1 X147.305 Y149.62 E15.56641
G1 X145.507 Y151.23 E15.79449
G1 X145.19 Y151.499 E15.83377
G1 X143.319 Y153.004 E16.06069
G1 X142.976 Y153.265 E16.10142
G1 X141.025 Y154.666 E16.3284
G1 X140.671 Y154.906 E16.36881
G1 X138.634 Y156.207 E16.59722
G1 X138.274 Y156.423 E16.6369
G1 X136.193 Y157.601 E16.86287
G1 X135.812 Y157.803 E16.90362
G1 X133.652 Y158.874 E17.13146
G1 X133.266 Y159.053 E17.17167
G1 X131.055 Y160.004 E17.39911
G1 X130.658 Y160.162 E17.43949
G1 X128.39 Y160.995 E17.66782
G1 X127.987 Y161.131 E17.70801
G1 X125.695 Y161.835 E17.93459
G1 X125.281 Y161.95 E17.9752
G1 X122.941 Y162.531 E18.20304
G1 X122.524 Y162.623 E18.24339
G1 X120.168 Y163.074 E18.47008
G1 X119.752 Y163.142 E18.50991
G1 X117.364 Y163.468 E18.73767
G1 X116.939 Y163.514 E18.77807
G1 X114.548 Y163.709 E19.00477
G1 X114.12 Y163.732 E19.04527
G1 X111.71 Y163.797 E19.2731
G1 X111.286 Y163.797 E19.31317
G1 X108.876 Y163.732 E19.541
G1 X108.447 Y163.709 E19.5816
G1 X106.059 Y163.514 E19.80801
G1 X105.634 Y163.467 E19.84842
G1 X103.241 Y163.14 E20.07666
G1 X102.826 Y163.072 E20.1164
G1 X100.471 Y162.621 E20.34299
G1 X100.054 Y162.53 E20.38333
G1 X97.722 Y161.951 E20.61039
G1 X97.307 Y161.836 E20.65109
G1 X95.009 Y161.13 E20.87826
G1 X94.606 Y160.994 E20.91846
G1 X92.342 Y160.162 E21.1464
G1 X91.947 Y160.005 E21.18656
G1 X89.733 Y159.053 E21.41431
G1 X89.347 Y158.874 E21.45452
G1 X87.19 Y157.805 E21.68201
G1 X86.807 Y157.602 E21.72298
G1 X84.725 Y156.423 E21.94908
G1 X84.365 Y156.206 E21.9888
G1 X82.327 Y154.904 E22.21734
G1 X81.975 Y154.665 E22.25755
G1 X80.026 Y153.266 E22.48427
G1 X79.682 Y153.005 E22.52507
G1 X77.81 Y151.499 E22.75212
G1 X77.493 Y151.23 E22.79141
G1 X75.695 Y149.62 E23.01948
G1 X75.376 Y149.318 E23.06099
G1 X73.681 Y147.621 E23.28765
G1 X73.391 Y147.315 E23.32749
G1 X71.777 Y145.516 E23.55589
G1 X71.502 Y145.192 E23.59605
G1 X69.995 Y143.318 E23.8233
G1 X69.737 Y142.978 E23.86363
G1 X68.338 Y141.031 E24.09019
G1 X68.095 Y140.673 E24.13108
G1 X66.795 Y138.636 E24.35944
G1 X66.58 Y138.278 E24.3989
G1 X65.401 Y136.195 E24.62509
G1 X65.2 Y135.817 E24.66555
G1 X64.13 Y133.661 E24.893
G1 X63.95 Y133.273 E24.93342
G1 X62.995 Y131.054 E25.16171
G1 X62.836 Y130.653 E25.20248
G1 X62.007 Y128.393 E25.42996
G1 X61.873 Y127.995 E25.46965
G1 X61.166 Y125.695 E25.69703
G1 X61.05 Y125.279 E25.73785
G1 X60.47 Y122.944 E25.96521
G1 X60.379 Y122.528 E26.00545
G1 X59.928 Y120.175 E26.23186
G1 X59.86 Y119.76 E26.2716
G1 X59.533 Y117.368 E26.49974
G1 X59.486 Y116.942 E26.54024
G1 X59.291 Y114.555 E26.76657
G1 X59.268 Y114.127 E26.80707
G1 X59.203 Y111.72 E27.03462
G1 X59.203 Y111.295 E27.07478
G1 X59.268 Y108.88 E27.30308
G1 X59.291 Y108.451 E27.34368
G1 X59.486 Y106.062 E27.57019
G1 X59.532 Y105.64 E27.6103
G1 X59.858 Y103.247 E27.83853
G1 X59.926 Y102.83 E27.87846
G1 X60.377 Y100.473 E28.10524
G1 X60.47 Y100.05 E28.14616
G1 X61.051 Y97.717 E28.37337
G1 X61.165 Y97.309 E28.4134
G1 X61.872 Y95.006 E28.64106
G1 X62.008 Y94.602 E28.68134
G1 X62.837 Y92.345 E28.90856
G1 X62.995 Y91.948 E28.94894
G1 X63.95 Y89.728 E29.17732
G1 X64.131 Y89.338 E29.21795
G1 X65.202 Y87.181 E29.44553
G1 X65.401 Y86.805 E29.48573
G1 X66.579 Y84.723 E29.71179
G1 X66.796 Y84.363 E29.75151
G1 X68.096 Y82.327 E29.97979
G1 X68.338 Y81.97 E30.02054
G1 X69.737 Y80.023 E30.24711
G1 X69.995 Y79.683 E30.28744
G1 X71.502 Y77.809 E30.51469
G1 X71.777 Y77.485 E30.55485
G1 X73.392 Y75.685 E30.78338
G1 X73.681 Y75.38 E30.82309
G1 X75.376 Y73.682 E31.04981
G0 F4500 X75.623 Y73.93
G1 F1800 X75.929 Y73.64 E31.08965
G1 X77.727 Y72.03 E31.31773
G1 X78.031 Y71.772 E31.35541
G1 X79.905 Y70.265 E31.58266
G1 X80.232 Y70.016 E31.6215
G1 X82.179 Y68.618 E31.84801
G1 X82.519 Y68.388 E31.8868
G1 X84.557 Y67.087 E32.11529
G1 X84.898 Y66.882 E32.15289
G1 X86.978 Y65.704 E32.37878
G1 X87.343 Y65.51 E32.41784
G1 X89.503 Y64.439 E32.64568
G1 X89.873 Y64.268 E32.68419
G1 X92.084 Y63.317 E32.91164
G1 X92.462 Y63.167 E32.95007
G1 X94.729 Y62.334 E33.17831
G1 X95.115 Y62.203 E33.21683
G1 X97.408 Y61.499 E33.4435
G1 X97.804 Y61.39 E33.48231
G1 X100.145 Y60.809 E33.71025
G1 X100.543 Y60.721 E33.74877
G1 X102.898 Y60.27 E33.97536
G1 X103.295 Y60.205 E34.01338
G1 X105.683 Y59.879 E34.24114
G1 X106.089 Y59.835 E34.27973
G1 X108.48 Y59.64 E34.50643
G1 X108.889 Y59.618 E34.54513
G1 X111.299 Y59.553 E34.77296
G1 X111.705 Y59.553 E34.81133
G1 X114.115 Y59.618 E35.03916
G1 X114.524 Y59.64 E35.07786
G1 X116.912 Y59.835 E35.30428
G1 X117.319 Y59.879 E35.34297
G1 X119.712 Y60.206 E35.57121
G1 X120.109 Y60.271 E35.60922
G1 X122.463 Y60.722 E35.83572
G1 X122.86 Y60.81 E35.87415
G1 X125.193 Y61.389 E36.1013
G1 X125.589 Y61.498 E36.14012
G1 X127.885 Y62.203 E36.36709
G1 X128.272 Y62.334 E36.4057
G1 X130.538 Y63.167 E36.63385
G1 X130.915 Y63.317 E36.67219
G1 X133.129 Y64.269 E36.89993
G1 X133.499 Y64.44 E36.93845
G1 X135.655 Y65.509 E37.16586
G1 X136.019 Y65.702 E37.2048
G1 X138.102 Y66.881 E37.43098
G1 X138.447 Y67.089 E37.46905
G1 X140.483 Y68.39 E37.69738
G1 X140.818 Y68.617 E37.73562
G1 X142.766 Y70.015 E37.96221
G1 X143.095 Y70.265 E38.00126
G1 X144.969 Y71.772 E38.22851
G1 X145.273 Y72.03 E38.26619
G1 X147.071 Y73.64 E38.49426
G1 X147.375 Y73.928 E38.53383
G1 X149.071 Y75.626 E38.76063
G1 X149.348 Y75.919 E38.79873
G1 X150.961 Y77.717 E39.02699
G1 X151.223 Y78.025 E39.06521
G1 X152.725 Y79.892 E39.29165
G1 X152.972 Y80.217 E39.33022
G1 X154.375 Y82.169 E39.55739
G1 X154.608 Y82.512 E39.59657
G1 X155.909 Y84.55 E39.82506
G1 X156.116 Y84.894 E39.863
G1 X157.295 Y86.978 E40.08927
G1 X157.485 Y87.336 E40.12757
G1 X158.556 Y89.493 E40.35515
G1 X158.728 Y89.864 E40.3938
G1 X159.679 Y92.073 E40.62107
G1 X159.832 Y92.457 E40.66013
G1 X160.664 Y94.725 E40.88842
G1 X160.791 Y95.103 E40.92611
G1 X161.496 Y97.393 E41.15254
G1 X161.607 Y97.791 E41.19158
G1 X162.188 Y100.128 E41.41915
G1 X162.275 Y100.526 E41.45765
G1 X162.728 Y102.887 E41.68483
G1 X162.794 Y103.285 E41.72296
G1 X163.12 Y105.668 E41.95025
G1 X163.164 Y106.075 E41.98894
G1 X163.36 Y108.473 E42.2163
G1 X163.382 Y108.883 E42.2551
G1 X163.447 Y111.29 E42.48265
G1 X163.447 Y111.695 E42.52092
G1 X163.382 Y114.11 E42.74922
G1 X163.36 Y114.52 E42.78802
G1 X163.165 Y116.909 E43.01453
G1 X163.121 Y117.314 E43.05303
G1 X162.795 Y119.705 E43.28107
G1 X162.73 Y120.101 E43.31899
G1 X162.279 Y122.46 E43.54596
G1 X162.19 Y122.865 E43.58514
G1 X161.609 Y125.198 E43.81234
G1 X161.501 Y125.588 E43.85059
G1 X160.794 Y127.891 E44.07824
G1 X160.664 Y128.277 E44.11673
G1 X159.835 Y130.534 E44.34395
G1 X159.684 Y130.914 E44.38259
G1 X158.729 Y133.134 E44.61097
G1 X158.557 Y133.505 E44.64962
G1 X157.487 Y135.661 E44.87707
G1 X157.295 Y136.023 E44.91579
G1 X156.116 Y138.106 E45.14198
G1 X155.909 Y138.449 E45.17984
G1 X154.609 Y140.485 E45.40812
G1 X154.378 Y140.826 E45.44704
G1 X152.979 Y142.773 E45.6736
G1 X152.732 Y143.098 E45.71218
G1 X151.225 Y144.972 E45.93943
G1 X150.962 Y145.281 E45.97777
G1 X149.347 Y147.081 E46.2063
G1 X149.072 Y147.372 E46.24414
G1 X147.378 Y149.069 E46.47073
G1 X147.072 Y149.359 E46.51057
G1 X145.274 Y150.969 E46.73865
G1 X144.97 Y151.226 E46.77626
G1 X143.099 Y152.731 E47.00318
G1 X142.772 Y152.98 E47.04202
G1 X140.821 Y154.381 E47.269
G1 X140.482 Y154.611 E47.30771
G1 X138.445 Y155.912 E47.53612
G1 X138.102 Y156.119 E47.57398
G1 X136.021 Y157.297 E47.79995
G1 X135.657 Y157.49 E47.83889
G1 X133.497 Y158.561 E48.06672
G1 X133.127 Y158.732 E48.10524
G1 X130.916 Y159.683 E48.33269
G1 X130.537 Y159.834 E48.37124
G1 X128.269 Y160.667 E48.59957
G1 X127.884 Y160.796 E48.63794
G1 X125.592 Y161.5 E48.86452
G1 X125.196 Y161.61 E48.90336
G1 X122.856 Y162.191 E49.1312
G1 X122.458 Y162.279 E49.16972
G1 X120.102 Y162.73 E49.3964
G1 X119.705 Y162.795 E49.43442
G1 X117.317 Y163.121 E49.66218
G1 X116.911 Y163.165 E49.70077
G1 X114.52 Y163.36 E49.92747
G1 X114.111 Y163.382 E49.96618
G1 X111.701 Y163.447 E50.194
G1 X111.295 Y163.447 E50.23237
G1 X108.885 Y163.382 E50.4602
G1 X108.476 Y163.36 E50.49891
G1 X106.088 Y163.165 E50.72532
G1 X105.681 Y163.121 E50.76401
G1 X103.288 Y162.794 E50.99225
G1 X102.892 Y162.729 E51.03017
G1 X100.537 Y162.278 E51.25676
G1 X100.139 Y162.19 E51.29528
G1 X97.807 Y161.611 E51.52235
G1 X97.41 Y161.501 E51.56128
G1 X95.112 Y160.795 E51.78846
G1 X94.726 Y160.665 E51.82695
G1 X92.462 Y159.833 E52.05488
G1 X92.085 Y159.683 E52.09323
G1 X89.871 Y158.731 E52.32097
G1 X89.502 Y158.56 E52.3594
G1 X87.345 Y157.491 E52.5869
G1 X86.979 Y157.297 E52.62605
G1 X84.897 Y156.118 E52.85215
G1 X84.554 Y155.911 E52.89001
G1 X82.516 Y154.609 E53.11855
G1 X82.179 Y154.381 E53.157
G1 X80.23 Y152.982 E53.38372
G1 X79.901 Y152.732 E53.42276
G1 X78.029 Y151.226 E53.64981
G1 X77.726 Y150.969 E53.68735
G1 X75.928 Y149.359 E53.91543
G1 X75.624 Y149.071 E53.955
G1 X73.929 Y147.374 E54.18166
G1 X73.652 Y147.081 E54.21976
G1 X72.038 Y145.282 E54.44816
G1 X71.775 Y144.973 E54.48651
G1 X70.268 Y143.099 E54.71376
G1 X70.021 Y142.774 E54.75233
G1 X68.622 Y140.827 E54.9789
G1 X68.39 Y140.484 E55.01803
G1 X67.09 Y138.447 E55.24639
G1 X66.884 Y138.106 E55.28403
G1 X65.705 Y136.023 E55.51022
G1 X65.513 Y135.661 E55.54894
G1 X64.443 Y133.505 E55.7764
G1 X64.272 Y133.135 E55.81492
G1 X63.317 Y130.916 E56.04321
G1 X63.164 Y130.532 E56.08227
G1 X62.335 Y128.272 E56.30975
G1 X62.207 Y127.892 E56.34765
G1 X61.5 Y125.592 E56.57503
G1 X61.39 Y125.195 E56.61396
G1 X60.81 Y122.86 E56.84133
G1 X60.723 Y122.463 E56.87973
G1 X60.272 Y120.11 E57.10614
G1 X60.206 Y119.712 E57.14426
G1 X59.879 Y117.32 E57.37241
G1 X59.835 Y116.914 E57.411
G1 X59.64 Y114.527 E57.63733
G1 X59.618 Y114.117 E57.67613
G1 X59.553 Y111.71 E57.90367
G1 X59.553 Y111.305 E57.94194
G1 X59.618 Y108.89 E58.17024
G1 X59.64 Y108.48 E58.20904
G1 X59.835 Y106.091 E58.43556
G1 X59.879 Y105.687 E58.47396
G1 X60.205 Y103.294 E58.70219
G1 X60.27 Y102.896 E58.7403
G1 X60.721 Y100.539 E58.96707
G1 X60.81 Y100.135 E59.00617
G1 X61.391 Y97.802 E59.23337
G1 X61.499 Y97.412 E59.27161
G1 X62.206 Y95.109 E59.49927
G1 X62.336 Y94.723 E59.53776
G1 X63.165 Y92.466 E59.76498
G1 X63.316 Y92.086 E59.80362
G1 X64.271 Y89.866 E60.032
G1 X64.444 Y89.493 E60.07085
G1 X65.515 Y87.336 E60.29843
G1 X65.706 Y86.977 E60.33686
G1 X66.884 Y84.895 E60.56292
G1 X67.091 Y84.551 E60.60086
G1 X68.391 Y82.515 E60.82914
G1 X68.622 Y82.174 E60.86806
G1 X70.021 Y80.227 E61.09462
G1 X70.268 Y79.902 E61.1332
G1 X71.775 Y78.028 E61.36045
G1 X72.038 Y77.719 E61.39879
G1 X73.653 Y75.919 E61.62732
G1 X73.928 Y75.628 E61.66516
G1 X75.623 Y73.93 E61.89189
G0 F4500 X75.871 Y74.177
G1 F1800 X76.163 Y73.901 E61.92986
G1 X77.961 Y72.291 E62.15793
G1 X78.251 Y72.045 E62.19387
G1 X80.125 Y70.538 E62.42112
G1 X80.436 Y70.301 E62.45807
G1 X82.383 Y68.903 E62.68458
G1 X82.707 Y68.683 E62.72159
G1 X84.745 Y67.382 E62.95007
G1 X85.07 Y67.187 E62.98589
G1 X87.15 Y66.009 E63.21179
G1 X87.499 Y65.824 E63.24911
G1 X89.659 Y64.753 E63.47695
G1 X90.011 Y64.59 E63.5136
G1 X92.222 Y63.639 E63.74105
G1 X92.582 Y63.495 E63.77769
G1 X94.849 Y62.662 E64.00593
G1 X95.218 Y62.538 E64.04271
G1 X97.511 Y61.834 E64.26939
G1 X97.889 Y61.729 E64.30646
G1 X100.23 Y61.148 E64.5344
G1 X100.608 Y61.065 E64.57097
G1 X102.963 Y60.614 E64.79756
G1 X103.342 Y60.552 E64.83385
G1 X105.73 Y60.226 E65.06161
G1 X106.118 Y60.184 E65.09849
G1 X108.509 Y59.989 E65.32519
G1 X108.899 Y59.968 E65.3621
G1 X111.309 Y59.903 E65.58993
G1 X111.695 Y59.903 E65.6264
G1 X114.105 Y59.968 E65.85423
G1 X114.496 Y59.989 E65.89123
G1 X116.884 Y60.184 E66.11765
G1 X117.271 Y60.226 E66.15444
G1 X119.664 Y60.553 E66.38268
G1 X120.043 Y60.615 E66.41897
G1 X122.397 Y61.066 E66.64547
G1 X122.775 Y61.149 E66.68204
G1 X125.108 Y61.728 E66.9092
G1 X125.486 Y61.833 E66.94627
G1 X127.782 Y62.538 E67.17324
G1 X128.152 Y62.663 E67.21015
G1 X130.418 Y63.496 E67.43829
G1 X130.776 Y63.639 E67.47472
G1 X132.99 Y64.591 E67.70247
G1 X133.343 Y64.754 E67.73921
G1 X135.499 Y65.823 E67.96662
G1 X135.846 Y66.007 E68.00374
G1 X137.929 Y67.186 E68.22993
G1 X138.258 Y67.384 E68.26621
G1 X140.294 Y68.685 E68.49454
G1 X140.614 Y68.902 E68.53108
G1 X142.562 Y70.3 E68.75767
G1 X142.875 Y70.538 E68.79482
G1 X144.749 Y72.045 E69.02207
G1 X145.039 Y72.291 E69.05801
G1 X146.837 Y73.901 E69.28609
G1 X147.127 Y74.175 E69.32379
G1 X148.823 Y75.873 E69.55058
G1 X149.088 Y76.153 E69.58701
G1 X150.701 Y77.951 E69.81528
G1 X150.95 Y78.244 E69.85161
G1 X152.452 Y80.111 E70.07805
G1 X152.688 Y80.421 E70.11487
G1 X154.091 Y82.373 E70.34204
G1 X154.313 Y82.7 E70.37939
G1 X155.614 Y84.738 E70.60787
G1 X155.811 Y85.066 E70.64403
G1 X156.99 Y87.15 E70.8703
