;FLAVOR:UltiGCode
;TIME:778
;MATERIAL:1278
;MATERIAL2:0
;NOZZLE_DIAMETER:0.4
;Generated with Cura_SteamEngine master

;LAYER_COUNT:67
;LAYER:0
M107
G0 F4500 X87.598 Y99.92 Z0.27
;TYPE:SKIRT
G1 F1800 X88.237 Y99.45 E0.07496
G1 X88.921 Y99.047 E0.14998
G1 X89.641 Y98.714 E0.22495
G1 X90.391 Y98.456 E0.2999
G1 X91.164 Y98.274 E0.37495
G1 X91.95 Y98.171 E0.44986
G1 X92.578 Y98.146 E0.50925
G1 X103.529 Y98.146 E1.54412
G1 X104.321 Y98.186 E1.61906
G1 X105.106 Y98.305 E1.69409
G1 X105.874 Y98.503 E1.76904
G1 X106.619 Y98.778 E1.84408
G1 X107.332 Y99.125 E1.91902
G1 X108.007 Y99.543 E1.99405
G1 X108.636 Y100.026 E2.06899
G1 X108.956 Y100.314 E2.10967
G1 X109.058 Y100.411 E2.12298
G1 X109.605 Y100.986 E2.19797
G1 X110.091 Y101.614 E2.27301
G1 X110.511 Y102.287 E2.34798
G1 X110.862 Y102.998 E2.42291
G1 X111.139 Y103.742 E2.49793
G1 X111.33 Y104.471 E2.56915
G1 X111.669 Y104.471 E2.60119
G1 X111.871 Y103.711 E2.6755
G1 X112.151 Y102.969 E2.75044
G1 X112.505 Y102.259 E2.82542
G1 X112.928 Y101.587 E2.90045
G1 X113.416 Y100.962 E2.97539
G1 X113.942 Y100.411 E3.04737
G1 X114.044 Y100.314 E3.06068
G1 X114.646 Y99.797 E3.13567
G1 X115.297 Y99.343 E3.21067
G1 X115.99 Y98.957 E3.28563
G1 X116.718 Y98.643 E3.36055
G1 X117.475 Y98.403 E3.4356
G1 X118.252 Y98.241 E3.5106
G1 X119.041 Y98.158 E3.58557
G1 X119.471 Y98.146 E3.62623
G1 X130.422 Y98.146 E4.6611
G1 X131.214 Y98.186 E4.73603
G1 X131.999 Y98.305 E4.81106
G1 X132.767 Y98.503 E4.88601
G1 X133.512 Y98.778 E4.96106
G1 X134.225 Y99.125 E5.03599
G1 X134.9 Y99.543 E5.11102
G1 X135.529 Y100.026 E5.18596
G1 X135.99 Y100.453 E5.24535
G1 X136.093 Y100.556 E5.25911
G1 X136.626 Y101.144 E5.33411
G1 X137.096 Y101.783 E5.40907
G1 X137.499 Y102.467 E5.48409
G1 X137.832 Y103.187 E5.55906
G1 X138.09 Y103.937 E5.63401
G1 X138.272 Y104.71 E5.70905
G1 X138.375 Y105.496 E5.78397
G1 X138.4 Y106.124 E5.84336
G1 X138.4 Y109.043 E6.1192
G1 X138.36 Y109.835 E6.19414
G1 X138.241 Y110.62 E6.26917
G1 X138.043 Y111.388 E6.34412
G1 X137.768 Y112.133 E6.41917
G1 X137.421 Y112.846 E6.4941
G1 X137.003 Y113.521 E6.56913
G1 X136.52 Y114.15 E6.64407
G1 X136.093 Y114.611 E6.70346
G1 X135.99 Y114.714 E6.71722
G1 X135.402 Y115.247 E6.79222
G1 X134.763 Y115.717 E6.86718
G1 X134.079 Y116.12 E6.9422
G1 X133.359 Y116.453 E7.01717
G1 X132.609 Y116.711 E7.09212
G1 X131.836 Y116.893 E7.16716
G1 X131.05 Y116.996 E7.24207
G1 X130.438 Y117.021 E7.29996
G1 X126.803 Y117.028 E7.64347
G1 X126.765 Y117.084 E7.64986
G1 X126.254 Y117.757 E7.72971
G1 X125.475 Y118.674 E7.84342
G1 X124.876 Y119.304 E7.92557
G1 X124.014 Y120.117 E8.03754
G1 X123.37 Y120.663 E8.11733
G1 X122.418 Y121.385 E8.23024
G1 X121.714 Y121.861 E8.31055
G1 X120.705 Y122.467 E8.42177
G1 X119.941 Y122.87 E8.5034
G1 X118.852 Y123.371 E8.61668
G1 X118.071 Y123.681 E8.69608
G1 X116.938 Y124.062 E8.80904
G1 X116.119 Y124.289 E8.88936
G1 X114.968 Y124.542 E9.00072
G1 X114.12 Y124.681 E9.08193
G1 X112.931 Y124.809 E9.19494
G1 X112.081 Y124.854 E9.27538
G1 X110.895 Y124.853 E9.38745
G1 X110.058 Y124.808 E9.46666
G1 X108.871 Y124.68 E9.57949
G1 X108.018 Y124.54 E9.66117
G1 X106.867 Y124.286 E9.77256
G1 X106.052 Y124.06 E9.85248
G1 X104.917 Y123.678 E9.96565
G1 X104.119 Y123.36 E10.04683
G1 X103.033 Y122.857 E10.15993
G1 X102.284 Y122.46 E10.24004
G1 X101.273 Y121.852 E10.35153
G1 X100.57 Y121.375 E10.43181
G1 X99.619 Y120.653 E10.54464
G1 X98.971 Y120.104 E10.6249
G1 X98.113 Y119.293 E10.73647
G1 X97.521 Y118.668 E10.81782
G1 X96.748 Y117.758 E10.93066
G1 X96.237 Y117.086 E11.01043
G1 X96.198 Y117.028 E11.01704
G1 X92.561 Y117.021 E11.36074
G1 X91.769 Y116.979 E11.43569
G1 X90.984 Y116.858 E11.51074
G1 X90.216 Y116.659 E11.58572
G1 X89.472 Y116.383 E11.66071
G1 X88.76 Y116.034 E11.73564
G1 X88.086 Y115.615 E11.81064
G1 X87.458 Y115.13 E11.88562
G1 X86.981 Y114.687 E11.94714
G1 X86.879 Y114.584 E11.96084
G1 X86.35 Y113.993 E12.03579
G1 X85.883 Y113.352 E12.11074
G1 X85.483 Y112.666 E12.18578
G1 X85.154 Y111.944 E12.26076
G1 X84.899 Y111.193 E12.33571
G1 X84.721 Y110.42 E12.41067
G1 X84.622 Y109.632 E12.48572
G1 X84.6 Y109.043 E12.54142
G1 X84.6 Y106.124 E12.81726
G1 X84.64 Y105.332 E12.8922
G1 X84.759 Y104.547 E12.96723
G1 X84.957 Y103.779 E13.04218
G1 X85.232 Y103.034 E13.11723
G1 X85.579 Y102.321 E13.19216
G1 X85.997 Y101.646 E13.26719
G1 X86.48 Y101.017 E13.34213
G1 X86.907 Y100.556 E13.40151
G1 X87.01 Y100.453 E13.41528
G1 X87.598 Y99.92 E13.49028
G0 F4500 X87.833 Y100.181
G1 F1800 X88.459 Y99.723 E13.56358
G1 X89.13 Y99.333 E13.63692
G1 X89.836 Y99.013 E13.71017
G1 X90.572 Y98.768 E13.78347
G1 X91.33 Y98.6 E13.85684
G1 X92.1 Y98.511 E13.93009
G1 X92.578 Y98.496 E13.97528
G1 X103.529 Y98.496 E15.01015
G1 X104.304 Y98.536 E15.08349
G1 X105.07 Y98.655 E15.15674
G1 X105.82 Y98.853 E15.23005
G1 X106.546 Y99.127 E15.30338
G1 X107.239 Y99.474 E15.37662
G1 X107.893 Y99.891 E15.44992
G1 X108.715 Y100.568 E15.55055
G1 X108.817 Y100.665 E15.56385
G1 X109.35 Y101.228 E15.63711
G1 X109.823 Y101.843 E15.71043
G1 X110.231 Y102.503 E15.78376
G1 X110.568 Y103.201 E15.857
G1 X110.831 Y103.931 E15.93033
G1 X111.018 Y104.684 E16.00365
G1 X111.039 Y104.821 E16.01675
G1 X111.967 Y104.821 E16.10444
G1 X112.013 Y104.534 E16.13191
G1 X112.215 Y103.785 E16.20522
G1 X112.493 Y103.061 E16.27851
G1 X112.844 Y102.369 E16.35183
G1 X113.265 Y101.718 E16.4251
G1 X113.75 Y101.113 E16.49837
G1 X114.183 Y100.665 E16.55725
G1 X114.285 Y100.568 E16.57055
G1 X114.874 Y100.063 E16.64387
G1 X115.512 Y99.622 E16.71716
G1 X116.192 Y99.248 E16.7905
G1 X116.906 Y98.947 E16.86372
G1 X117.648 Y98.72 E16.93705
G1 X118.409 Y98.571 E17.01033
G1 X119.471 Y98.496 E17.11094
G1 X130.422 Y98.496 E18.14581
G1 X131.197 Y98.536 E18.21914
G1 X131.963 Y98.655 E18.2924
G1 X132.713 Y98.853 E18.3657
G1 X133.439 Y99.127 E18.43903
G1 X134.132 Y99.474 E18.51227
G1 X134.786 Y99.891 E18.58557
G1 X135.394 Y100.373 E18.65889
G1 X135.743 Y100.7 E18.70409
G1 X135.846 Y100.803 E18.71785
G1 X136.365 Y101.379 E18.79112
G1 X136.823 Y102.005 E18.86442
G1 X137.213 Y102.676 E18.93776
G1 X137.533 Y103.382 E19.01101
G1 X137.778 Y104.118 E19.08432
G1 X137.946 Y104.876 E19.15769
G1 X138.035 Y105.646 E19.23094
G1 X138.05 Y106.124 E19.27613
G1 X138.05 Y109.043 E19.55197
G1 X138.01 Y109.818 E19.62531
G1 X137.891 Y110.584 E19.69856
G1 X137.693 Y111.334 E19.77187
G1 X137.419 Y112.06 E19.8452
G1 X137.072 Y112.753 E19.91844
G1 X136.655 Y113.407 E19.99173
G1 X136.173 Y114.015 E20.06506
G1 X135.846 Y114.364 E20.11025
G1 X135.743 Y114.467 E20.12402
G1 X135.167 Y114.986 E20.19728
G1 X134.541 Y115.444 E20.27058
G1 X133.87 Y115.834 E20.34393
G1 X133.164 Y116.154 E20.41718
G1 X132.428 Y116.399 E20.49048
G1 X131.67 Y116.567 E20.56385
G1 X130.9 Y116.656 E20.6371
G1 X130.437 Y116.671 E20.68088
G1 X126.618 Y116.679 E21.04177
G1 X126.476 Y116.888 E21.06565
G1 X125.987 Y117.53 E21.14191
G1 X125.208 Y118.447 E21.25562
G1 X124.636 Y119.049 E21.33409
G1 X123.774 Y119.862 E21.44607
G1 X123.158 Y120.384 E21.52237
G1 X122.206 Y121.106 E21.63528
G1 X121.533 Y121.561 E21.71205
G1 X120.524 Y122.167 E21.82327
G1 X119.795 Y122.552 E21.90118
G1 X118.706 Y123.053 E22.01446
G1 X117.959 Y123.35 E22.09043
G1 X116.826 Y123.731 E22.20339
G1 X116.043 Y123.948 E22.28017
G1 X114.892 Y124.201 E22.39153
G1 X114.082 Y124.333 E22.46909
G1 X112.893 Y124.461 E22.5821
G1 X112.082 Y124.504 E22.65885
G1 X110.896 Y124.503 E22.77092
G1 X110.095 Y124.46 E22.84673
G1 X108.908 Y124.332 E22.95955
G1 X108.093 Y124.198 E23.0376
G1 X106.942 Y123.944 E23.14899
G1 X106.164 Y123.728 E23.22529
G1 X105.029 Y123.346 E23.33846
G1 X104.266 Y123.042 E23.41607
G1 X103.18 Y122.539 E23.52917
G1 X102.465 Y122.16 E23.60565
G1 X101.454 Y121.552 E23.71713
G1 X100.782 Y121.096 E23.79388
G1 X99.831 Y120.374 E23.90671
G1 X99.212 Y119.85 E23.98335
G1 X98.354 Y119.039 E24.09492
G1 X97.788 Y118.442 E24.17266
G1 X97.015 Y117.532 E24.2855
G1 X96.526 Y116.89 E24.36176
G1 X96.382 Y116.679 E24.3859
G1 X92.562 Y116.671 E24.74689
G1 X91.787 Y116.629 E24.82024
G1 X91.021 Y116.508 E24.89352
G1 X90.271 Y116.309 E24.96685
G1 X89.546 Y116.034 E25.04012
G1 X88.853 Y115.685 E25.11345
G1 X88.2 Y115.267 E25.18672
G1 X87.593 Y114.784 E25.26002
G1 X87.23 Y114.441 E25.30722
G1 X87.128 Y114.338 E25.32091
G1 X86.611 Y113.759 E25.39427
G1 X86.157 Y113.131 E25.4675
G1 X85.77 Y112.459 E25.54078
G1 X85.454 Y111.75 E25.61413
G1 X85.213 Y111.013 E25.68741
G1 X85.048 Y110.255 E25.76072
G1 X84.963 Y109.484 E25.83402
G1 X84.95 Y109.043 E25.87571
G1 X84.95 Y106.124 E26.15156
G1 X84.99 Y105.349 E26.22489
G1 X85.109 Y104.583 E26.29815
G1 X85.307 Y103.833 E26.37145
G1 X85.581 Y103.107 E26.44478
G1 X85.928 Y102.414 E26.51802
G1 X86.345 Y101.76 E26.59132
G1 X86.827 Y101.152 E26.66464
G1 X87.154 Y100.803 E26.70983
G1 X87.257 Y100.7 E26.7236
G1 X87.833 Y100.181 E26.79687
G0 F4500 X88.068 Y100.441
G1 F1800 X88.681 Y99.997 E26.8684
G1 X89.338 Y99.619 E26.94002
G1 X90.03 Y99.313 E27.01153
G1 X90.752 Y99.082 E27.08316
G1 X91.493 Y98.928 E27.15468
G1 X92.578 Y98.846 E27.25751
G1 X103.529 Y98.846 E28.29238
G1 X104.285 Y98.886 E28.36392
G1 X105.033 Y99.005 E28.43549
G1 X105.764 Y99.203 E28.50706
G1 X106.471 Y99.477 E28.57872
G1 X107.144 Y99.823 E28.65023
G1 X107.777 Y100.239 E28.72181
G1 X108.473 Y100.822 E28.80761
G1 X108.575 Y100.919 E28.82091
G1 X109.096 Y101.469 E28.8925
G1 X109.556 Y102.071 E28.9641
G1 X109.949 Y102.718 E29.03563
G1 X110.272 Y103.403 E29.1072
G1 X110.522 Y104.118 E29.17878
G1 X110.694 Y104.855 E29.2503
G1 X110.739 Y105.171 E29.28046
G1 X112.264 Y105.171 E29.42457
G1 X112.359 Y104.59 E29.48021
G1 X112.559 Y103.86 E29.55173
G1 X112.835 Y103.154 E29.62337
G1 X113.183 Y102.482 E29.69488
G1 X113.601 Y101.85 E29.76649
G1 X114.083 Y101.266 E29.83804
G1 X114.425 Y100.919 E29.88409
G1 X114.527 Y100.822 E29.89739
G1 X115.102 Y100.329 E29.96896
G1 X115.726 Y99.901 E30.04047
G1 X116.392 Y99.54 E30.11206
G1 X117.093 Y99.252 E30.18367
G1 X117.82 Y99.039 E30.25526
G1 X118.565 Y98.903 E30.32683
G1 X119.471 Y98.846 E30.41262
G1 X130.422 Y98.846 E31.44749
G1 X131.178 Y98.886 E31.51903
G1 X131.926 Y99.005 E31.5906
G1 X132.657 Y99.203 E31.66217
G1 X133.364 Y99.477 E31.73382
G1 X134.037 Y99.823 E31.80534
G1 X134.67 Y100.239 E31.87692
G1 X135.495 Y100.948 E31.97971
G1 X135.598 Y101.051 E31.99348
G1 X136.105 Y101.614 E32.06508
G1 X136.549 Y102.227 E32.1366
G1 X136.927 Y102.884 E32.20823
G1 X137.233 Y103.576 E32.27973
G1 X137.464 Y104.298 E32.35137
G1 X137.618 Y105.039 E32.42289
G1 X137.7 Y106.124 E32.52572
G1 X137.7 Y109.043 E32.80156
G1 X137.66 Y109.799 E32.8731
G1 X137.541 Y110.547 E32.94468
G1 X137.343 Y111.278 E33.01625
G1 X137.069 Y111.985 E33.0879
G1 X136.723 Y112.658 E33.15941
G1 X136.307 Y113.291 E33.23099
G1 X135.598 Y114.116 E33.33379
G1 X135.495 Y114.219 E33.34755
G1 X134.932 Y114.726 E33.41915
G1 X134.319 Y115.17 E33.49068
G1 X133.662 Y115.548 E33.56231
G1 X132.97 Y115.854 E33.63381
G1 X132.248 Y116.085 E33.70545
G1 X131.507 Y116.239 E33.77697
G1 X130.437 Y116.321 E33.87838
G1 X126.432 Y116.329 E34.25685
G1 X126.186 Y116.691 E34.29821
G1 X125.72 Y117.303 E34.3709
G1 X124.941 Y118.22 E34.48461
G1 X124.396 Y118.795 E34.55947
G1 X123.534 Y119.608 E34.67145
G1 X122.947 Y120.105 E34.74413
G1 X121.995 Y120.827 E34.85704
G1 X121.353 Y121.261 E34.93027
G1 X120.344 Y121.867 E35.0415
G1 X119.649 Y122.234 E35.11577
G1 X118.56 Y122.735 E35.22905
G1 X117.848 Y123.018 E35.30145
G1 X116.715 Y123.399 E35.41441
G1 X115.968 Y123.606 E35.48767
G1 X114.817 Y123.859 E35.59903
G1 X114.045 Y123.985 E35.67295
G1 X112.856 Y124.113 E35.78596
G1 X112.082 Y124.154 E35.85921
G1 X110.896 Y124.153 E35.97128
G1 X110.133 Y124.112 E36.04349
G1 X108.946 Y123.984 E36.15631
G1 X108.169 Y123.856 E36.23073
G1 X107.018 Y123.602 E36.34212
G1 X106.275 Y123.396 E36.41498
G1 X105.14 Y123.014 E36.52815
G1 X104.414 Y122.725 E36.60199
G1 X103.328 Y122.222 E36.71509
G1 X102.645 Y121.86 E36.78814
G1 X101.634 Y121.252 E36.89962
G1 X100.993 Y120.818 E36.97278
G1 X100.042 Y120.096 E37.08561
G1 X99.452 Y119.595 E37.15876
G1 X98.594 Y118.784 E37.27033
G1 X98.055 Y118.215 E37.34439
G1 X97.282 Y117.305 E37.45722
G1 X96.816 Y116.693 E37.52992
G1 X96.569 Y116.329 E37.57149
G1 X92.562 Y116.321 E37.95015
G1 X91.806 Y116.279 E38.0217
G1 X91.059 Y116.158 E38.09321
G1 X90.328 Y115.959 E38.1648
G1 X89.622 Y115.684 E38.2364
G1 X88.949 Y115.336 E38.308
G1 X88.317 Y114.92 E38.3795
G1 X87.479 Y114.195 E38.48422
G1 X87.377 Y114.092 E38.49792
G1 X86.873 Y113.526 E38.56954
G1 X86.432 Y112.911 E38.64105
G1 X86.058 Y112.252 E38.71266
G1 X85.755 Y111.558 E38.78422
G1 X85.528 Y110.835 E38.85583
G1 X85.377 Y110.093 E38.92739
G1 X85.3 Y109.043 E39.02688
G1 X85.3 Y106.124 E39.30272
G1 X85.34 Y105.368 E39.37426
G1 X85.459 Y104.62 E39.44584
G1 X85.657 Y103.889 E39.51741
G1 X85.931 Y103.182 E39.58906
G1 X86.277 Y102.509 E39.66057
G1 X86.693 Y101.876 E39.73215
G1 X87.402 Y101.051 E39.83495
G1 X87.505 Y100.948 E39.84872
G1 X88.068 Y100.441 E39.92031
G0 F4500 X88.302 Y100.702
G1 F1800 X88.902 Y100.271 E39.99012
G1 X89.545 Y99.907 E40.05995
G1 X90.223 Y99.615 E40.12971
G1 X90.929 Y99.398 E40.19951
G1 X91.655 Y99.259 E40.26936
G1 X92.578 Y99.196 E40.35679
G1 X103.529 Y99.196 E41.39166
G1 X104.267 Y99.236 E41.4615
G1 X104.995 Y99.355 E41.53121
G1 X105.707 Y99.553 E41.60105
G1 X106.393 Y99.826 E41.67082
G1 X107.046 Y100.172 E41.74065
G1 X107.658 Y100.586 E41.81048
G1 X108.232 Y101.075 E41.88174
G1 X108.334 Y101.172 E41.89504
G1 X108.841 Y101.71 E41.9649
G1 X109.287 Y102.298 E42.03464
G1 X109.667 Y102.932 E42.10449
G1 X109.976 Y103.603 E42.1743
G1 X110.21 Y104.303 E42.24405
G1 X110.416 Y105.376 E42.3473
G1 X110.432 Y105.521 E42.36108
G1 X112.568 Y105.521 E42.56293
G1 X112.584 Y105.376 E42.57672
G1 X112.704 Y104.647 E42.64654
G1 X112.902 Y103.935 E42.71638
G1 X113.176 Y103.249 E42.78618
G1 X113.523 Y102.597 E42.85598
G1 X113.937 Y101.986 E42.92572
G1 X114.666 Y101.172 E43.02899
G1 X114.768 Y101.075 E43.04229
G1 X115.33 Y100.596 E43.11207
G1 X115.94 Y100.18 E43.18184
G1 X116.592 Y99.833 E43.25164
G1 X117.278 Y99.558 E43.32148
G1 X117.989 Y99.359 E43.39125
G1 X118.718 Y99.238 E43.46109
G1 X119.471 Y99.196 E43.53236
G1 X130.422 Y99.196 E44.56723
G1 X131.16 Y99.236 E44.63707
G1 X131.888 Y99.355 E44.70678
G1 X132.6 Y99.553 E44.77662
G1 X133.286 Y99.826 E44.84639
G1 X133.939 Y100.172 E44.91622
G1 X134.551 Y100.586 E44.98605
G1 X135.248 Y101.195 E45.07351
G1 X135.351 Y101.298 E45.08728
G1 X135.844 Y101.848 E45.15708
G1 X136.275 Y102.448 E45.22689
G1 X136.639 Y103.091 E45.29671
G1 X136.931 Y103.769 E45.36647
G1 X137.148 Y104.475 E45.43627
G1 X137.287 Y105.201 E45.50613
G1 X137.35 Y106.124 E45.59355
G1 X137.35 Y109.043 E45.8694
G1 X137.31 Y109.781 E45.93924
G1 X137.191 Y110.509 E46.00895
G1 X136.993 Y111.221 E46.07879
G1 X136.72 Y111.907 E46.14856
G1 X136.374 Y112.56 E46.21839
G1 X135.96 Y113.172 E46.28822
G1 X135.351 Y113.869 E46.37569
G1 X135.248 Y113.972 E46.38945
G1 X134.698 Y114.465 E46.45925
G1 X134.098 Y114.896 E46.52906
G1 X133.455 Y115.26 E46.59889
G1 X132.777 Y115.552 E46.66865
G1 X132.071 Y115.769 E46.73844
G1 X131.345 Y115.908 E46.8083
G1 X130.436 Y115.971 E46.8944
G1 X126.247 Y115.98 E47.29027
G1 X125.897 Y116.494 E47.34903
G1 X125.453 Y117.077 E47.41828
G1 X124.674 Y117.994 E47.53199
G1 X124.156 Y118.54 E47.60311
G1 X123.294 Y119.353 E47.71508
G1 X122.735 Y119.826 E47.78428
G1 X121.783 Y120.548 E47.89719
G1 X121.173 Y120.961 E47.96681
G1 X120.164 Y121.567 E48.07803
G1 X119.502 Y121.916 E48.14875
G1 X118.413 Y122.417 E48.26203
G1 X117.736 Y122.686 E48.33087
G1 X116.603 Y123.067 E48.44383
G1 X115.893 Y123.264 E48.51346
G1 X114.742 Y123.517 E48.62483
G1 X114.008 Y123.637 E48.69511
G1 X112.819 Y123.765 E48.80812
G1 X112.082 Y123.804 E48.87787
G1 X110.896 Y123.803 E48.98994
G1 X110.17 Y123.764 E49.05865
G1 X108.983 Y123.636 E49.17147
G1 X108.244 Y123.515 E49.24224
G1 X107.093 Y123.261 E49.35362
G1 X106.387 Y123.064 E49.42289
G1 X105.252 Y122.682 E49.53606
G1 X104.561 Y122.407 E49.60634
G1 X103.475 Y121.904 E49.71944
G1 X102.826 Y121.56 E49.78885
G1 X101.815 Y120.952 E49.90034
G1 X101.205 Y120.539 E49.96995
G1 X100.254 Y119.817 E50.08279
G1 X99.693 Y119.341 E50.15231
G1 X98.835 Y118.53 E50.26388
G1 X98.321 Y117.989 E50.3344
