;FLAVOR:UltiGCode
;TIME:1023
;MATERIAL:1626
;MATERIAL2:0
;NOZZLE_DIAMETER:0.4
;Generated with Cura_SteamEngine master

;LAYER_COUNT:67
;LAYER:0
M107
G0 F4500 X87.598 Y96.812 Z0.27
;TYPE:SKIRT
G1 F1800 X88.237 Y96.342 E0.07496
G1 X88.921 Y95.939 E0.14998
G1 X89.641 Y95.606 E0.22495
G1 X90.391 Y95.348 E0.2999
G1 X91.164 Y95.166 E0.37495
G1 X91.95 Y95.063 E0.44986
G1 X92.578 Y95.038 E0.50925
G1 X106.271 Y95.038 E1.80324
G1 X107.063 Y95.078 E1.87818
G1 X107.848 Y95.197 E1.95321
G1 X108.616 Y95.395 E2.02816
G1 X109.361 Y95.67 E2.1032
G1 X110.074 Y96.017 E2.17814
G1 X110.749 Y96.435 E2.25317
G1 X111.378 Y96.918 E2.32811
G1 X111.5 Y97.033 E2.34395
G1 X111.606 Y96.932 E2.35779
G1 X112.234 Y96.447 E2.43277
G1 X112.907 Y96.027 E2.50774
G1 X113.619 Y95.677 E2.58271
G1 X114.363 Y95.401 E2.6577
G1 X115.131 Y95.201 E2.7327
G1 X115.915 Y95.079 E2.80768
G1 X116.731 Y95.037 E2.88489
G1 X130.423 Y95.038 E4.17879
G1 X131.215 Y95.078 E4.25373
G1 X131.999 Y95.198 E4.32868
G1 X132.768 Y95.396 E4.40372
G1 X133.512 Y95.67 E4.47864
G1 X134.226 Y96.017 E4.55366
G1 X134.9 Y96.435 E4.62861
G1 X135.529 Y96.919 E4.70361
G1 X135.99 Y97.345 E4.76293
G1 X136.093 Y97.448 E4.77669
G1 X136.626 Y98.036 E4.85169
G1 X137.096 Y98.675 E4.92665
G1 X137.499 Y99.359 E5.00167
G1 X137.832 Y100.079 E5.07664
G1 X138.09 Y100.829 E5.15159
G1 X138.272 Y101.602 E5.22664
G1 X138.375 Y102.388 E5.30155
G1 X138.4 Y103.016 E5.36094
G1 X138.4 Y105.935 E5.63679
G1 X138.36 Y106.727 E5.71172
G1 X138.241 Y107.512 E5.78676
G1 X138.043 Y108.28 E5.8617
G1 X137.768 Y109.025 E5.93675
G1 X137.421 Y109.738 E6.01168
G1 X137.003 Y110.413 E6.08671
G1 X136.52 Y111.042 E6.16166
G1 X136.093 Y111.503 E6.22104
G1 X135.99 Y111.606 E6.2348
G1 X135.402 Y112.139 E6.3098
G1 X134.763 Y112.609 E6.38476
G1 X134.079 Y113.012 E6.45978
G1 X133.359 Y113.345 E6.53475
G1 X132.609 Y113.603 E6.6097
G1 X131.836 Y113.785 E6.68474
G1 X131.05 Y113.888 E6.75966
G1 X130.422 Y113.913 E6.81905
G1 X129.736 Y113.913 E6.88388
G1 X129.59 Y114.451 E6.93656
G1 X129.215 Y115.583 E7.04925
G1 X128.897 Y116.392 E7.13139
G1 X128.398 Y117.479 E7.24442
G1 X128.013 Y118.213 E7.32275
G1 X127.403 Y119.241 E7.43571
G1 X126.918 Y119.965 E7.51806
G1 X126.199 Y120.918 E7.63087
G1 X125.642 Y121.577 E7.71241
G1 X124.819 Y122.45 E7.82579
G1 X124.209 Y123.032 E7.90546
G1 X123.295 Y123.814 E8.01914
G1 X122.604 Y124.342 E8.10132
G1 X121.613 Y125.016 E8.21457
G1 X120.895 Y125.45 E8.29386
G1 X119.858 Y126.004 E8.40496
G1 X119.068 Y126.371 E8.48728
G1 X117.944 Y126.82 E8.60166
G1 X117.14 Y127.092 E8.68187
G1 X115.979 Y127.416 E8.79577
G1 X115.129 Y127.603 E8.87802
G1 X113.963 Y127.793 E8.98966
G1 X113.128 Y127.884 E9.06903
G1 X111.927 Y127.95 E9.1827
G1 X111.056 Y127.95 E9.26501
G1 X109.856 Y127.883 E9.37859
G1 X109.02 Y127.791 E9.45806
G1 X107.856 Y127.6 E9.56953
G1 X107.01 Y127.413 E9.65141
G1 X105.848 Y127.088 E9.76543
G1 X105.045 Y126.816 E9.84555
G1 X103.932 Y126.371 E9.95883
G1 X103.147 Y126.006 E10.04064
G1 X102.1 Y125.447 E10.1528
G1 X101.376 Y125.009 E10.23276
G1 X100.385 Y124.334 E10.34607
G1 X99.695 Y123.806 E10.42817
G1 X98.789 Y123.03 E10.5409
G1 X98.182 Y122.451 E10.62018
G1 X97.358 Y121.577 E10.73369
G1 X96.801 Y120.918 E10.81523
G1 X96.082 Y119.965 E10.92804
G1 X95.599 Y119.246 E11.0099
G1 X94.988 Y118.218 E11.12291
G1 X94.601 Y117.479 E11.20174
G1 X94.104 Y116.396 E11.31434
G1 X93.785 Y115.585 E11.3967
G1 X93.409 Y114.449 E11.50978
G1 X93.264 Y113.913 E11.56225
G1 X92.578 Y113.913 E11.62708
G1 X91.786 Y113.873 E11.70202
G1 X91.001 Y113.754 E11.77705
G1 X90.233 Y113.556 E11.852
G1 X89.488 Y113.281 E11.92704
G1 X88.775 Y112.934 E12.00198
G1 X88.1 Y112.516 E12.077
G1 X87.471 Y112.033 E12.15195
G1 X87.01 Y111.606 E12.21133
G1 X86.907 Y111.503 E12.22509
G1 X86.374 Y110.915 E12.30009
G1 X85.904 Y110.276 E12.37505
G1 X85.501 Y109.592 E12.45007
G1 X85.168 Y108.872 E12.52504
G1 X84.91 Y108.122 E12.59999
G1 X84.728 Y107.349 E12.67504
G1 X84.625 Y106.563 E12.74995
G1 X84.6 Y105.935 E12.80934
G1 X84.6 Y103.016 E13.08519
G1 X84.64 Y102.224 E13.16013
G1 X84.759 Y101.439 E13.23516
G1 X84.957 Y100.671 E13.31011
G1 X85.232 Y99.926 E13.38515
G1 X85.579 Y99.213 E13.46009
G1 X85.997 Y98.538 E13.53511
G1 X86.48 Y97.909 E13.61006
G1 X86.907 Y97.448 E13.66944
G1 X87.01 Y97.345 E13.6832
G1 X87.598 Y96.812 E13.7582
G0 F4500 X87.833 Y97.073
G1 F1800 X88.459 Y96.615 E13.8315
G1 X89.13 Y96.225 E13.90484
G1 X89.836 Y95.905 E13.97809
G1 X90.572 Y95.66 E14.0514
G1 X91.33 Y95.492 E14.12477
G1 X92.1 Y95.403 E14.19802
G1 X92.578 Y95.388 E14.24321
G1 X106.271 Y95.388 E15.5372
G1 X107.046 Y95.428 E15.61053
G1 X107.812 Y95.547 E15.68379
G1 X108.562 Y95.745 E15.75709
G1 X109.288 Y96.019 E15.83042
G1 X109.981 Y96.366 E15.90366
G1 X110.635 Y96.783 E15.97696
G1 X111.243 Y97.265 E16.05028
G1 X111.499 Y97.515 E16.08409
G1 X111.9 Y97.142 E16.13585
G1 X112.52 Y96.675 E16.2092
G1 X113.184 Y96.275 E16.28245
G1 X113.886 Y95.945 E16.35575
G1 X114.618 Y95.689 E16.42904
G1 X115.373 Y95.51 E16.50236
G1 X116.142 Y95.41 E16.57564
G1 X116.731 Y95.387 E16.63135
G1 X130.423 Y95.388 E17.92524
G1 X131.197 Y95.428 E17.99848
G1 X131.964 Y95.548 E18.07185
G1 X132.713 Y95.745 E18.14503
G1 X133.439 Y96.019 E18.21836
G1 X134.133 Y96.367 E18.29173
G1 X134.787 Y96.783 E18.36498
G1 X135.395 Y97.265 E18.4383
G1 X135.743 Y97.592 E18.48342
G1 X135.846 Y97.695 E18.49719
G1 X136.365 Y98.271 E18.57046
G1 X136.823 Y98.897 E18.64376
G1 X137.213 Y99.568 E18.7171
G1 X137.533 Y100.274 E18.79035
G1 X137.778 Y101.01 E18.86365
G1 X137.946 Y101.768 E18.93702
G1 X138.035 Y102.538 E19.01027
G1 X138.05 Y103.016 E19.05547
G1 X138.05 Y105.935 E19.33131
G1 X138.01 Y106.71 E19.40465
G1 X137.891 Y107.476 E19.4779
G1 X137.693 Y108.226 E19.5512
G1 X137.419 Y108.952 E19.62453
G1 X137.072 Y109.645 E19.69777
G1 X136.655 Y110.299 E19.77107
G1 X136.173 Y110.907 E19.84439
G1 X135.846 Y111.256 E19.88959
G1 X135.743 Y111.359 E19.90335
G1 X135.167 Y111.878 E19.97662
G1 X134.541 Y112.336 E20.04992
G1 X133.87 Y112.726 E20.12326
G1 X133.164 Y113.046 E20.19651
G1 X132.428 Y113.291 E20.26982
G1 X131.67 Y113.459 E20.34319
G1 X130.9 Y113.548 E20.41644
G1 X130.422 Y113.563 E20.46163
G1 X129.469 Y113.563 E20.55169
G1 X129.258 Y114.341 E20.62786
G1 X128.883 Y115.473 E20.74056
G1 X128.579 Y116.246 E20.81905
G1 X128.08 Y117.333 E20.93208
G1 X127.712 Y118.034 E21.0069
G1 X127.102 Y119.062 E21.11986
G1 X126.638 Y119.754 E21.19859
G1 X125.919 Y120.707 E21.31141
G1 X125.387 Y121.337 E21.38933
G1 X124.564 Y122.21 E21.50271
G1 X123.981 Y122.766 E21.57884
G1 X123.067 Y123.548 E21.69251
G1 X122.407 Y124.052 E21.77099
G1 X121.416 Y124.726 E21.88424
G1 X120.73 Y125.141 E21.96001
G1 X119.693 Y125.695 E22.07111
G1 X118.938 Y126.046 E22.14979
G1 X117.814 Y126.495 E22.26417
G1 X117.046 Y126.755 E22.3408
G1 X115.885 Y127.079 E22.4547
G1 X115.072 Y127.258 E22.53337
G1 X113.906 Y127.448 E22.64501
G1 X113.109 Y127.535 E22.72077
G1 X111.908 Y127.601 E22.83444
G1 X111.076 Y127.6 E22.91306
G1 X109.876 Y127.533 E23.02664
G1 X109.077 Y127.446 E23.10259
G1 X107.913 Y127.255 E23.21406
G1 X107.104 Y127.076 E23.29236
G1 X105.942 Y126.751 E23.40638
G1 X105.175 Y126.491 E23.48292
G1 X104.062 Y126.046 E23.59619
G1 X103.312 Y125.697 E23.67436
G1 X102.265 Y125.138 E23.78652
G1 X101.573 Y124.719 E23.86297
G1 X100.582 Y124.044 E23.97628
G1 X99.923 Y123.54 E24.05468
G1 X99.017 Y122.764 E24.16741
G1 X98.437 Y122.211 E24.24314
G1 X97.613 Y121.337 E24.35665
G1 X97.081 Y120.707 E24.43458
G1 X96.362 Y119.754 E24.54739
G1 X95.9 Y119.067 E24.62563
G1 X95.289 Y118.039 E24.73864
G1 X94.919 Y117.333 E24.81396
G1 X94.422 Y116.25 E24.92657
G1 X94.117 Y115.476 E25.00518
G1 X93.741 Y114.34 E25.11826
G1 X93.531 Y113.563 E25.19432
G1 X92.578 Y113.563 E25.28438
G1 X91.803 Y113.523 E25.35772
G1 X91.037 Y113.404 E25.43097
G1 X90.287 Y113.206 E25.50428
G1 X89.561 Y112.932 E25.57761
G1 X88.868 Y112.585 E25.65085
G1 X88.214 Y112.168 E25.72414
G1 X87.606 Y111.686 E25.79746
G1 X87.257 Y111.359 E25.84266
G1 X87.154 Y111.256 E25.85642
G1 X86.635 Y110.68 E25.92969
G1 X86.177 Y110.054 E26.00299
G1 X85.787 Y109.383 E26.07633
G1 X85.467 Y108.677 E26.14958
G1 X85.222 Y107.941 E26.22289
G1 X85.054 Y107.183 E26.29626
G1 X84.965 Y106.413 E26.36951
G1 X84.95 Y105.935 E26.4147
G1 X84.95 Y103.016 E26.69055
G1 X84.99 Y102.241 E26.76388
G1 X85.109 Y101.475 E26.83714
G1 X85.307 Y100.725 E26.91044
G1 X85.581 Y99.999 E26.98377
G1 X85.928 Y99.306 E27.05701
G1 X86.345 Y98.652 E27.13031
G1 X86.827 Y98.044 E27.20363
G1 X87.154 Y97.695 E27.24882
G1 X87.257 Y97.592 E27.26259
G1 X87.833 Y97.073 E27.33586
G0 F4500 X88.068 Y97.333
G1 F1800 X88.681 Y96.889 E27.40738
G1 X89.338 Y96.511 E27.47901
G1 X90.03 Y96.205 E27.55052
G1 X90.752 Y95.974 E27.62215
G1 X91.493 Y95.82 E27.69367
G1 X92.578 Y95.738 E27.7965
G1 X106.271 Y95.738 E29.09049
G1 X107.027 Y95.778 E29.16203
G1 X107.775 Y95.897 E29.2336
G1 X108.506 Y96.095 E29.30517
G1 X109.213 Y96.369 E29.37682
G1 X109.886 Y96.715 E29.44834
G1 X110.519 Y97.131 E29.51992
G1 X111.105 Y97.611 E29.5915
G1 X111.5 Y98.011 E29.64462
G1 X111.633 Y97.862 E29.6635
G1 X112.193 Y97.353 E29.73501
G1 X112.805 Y96.906 E29.80663
G1 X113.46 Y96.526 E29.87819
G1 X114.151 Y96.217 E29.94972
G1 X114.871 Y95.982 E30.02129
G1 X115.612 Y95.825 E30.09287
G1 X116.731 Y95.737 E30.19894
G1 X130.423 Y95.738 E31.49284
G1 X131.179 Y95.778 E31.56438
G1 X131.927 Y95.898 E31.63597
G1 X132.658 Y96.095 E31.70751
G1 X133.364 Y96.369 E31.77908
G1 X134.037 Y96.715 E31.85059
G1 X134.671 Y97.131 E31.92225
G1 X135.495 Y97.84 E32.02497
G1 X135.598 Y97.943 E32.03874
G1 X136.105 Y98.506 E32.11034
G1 X136.549 Y99.119 E32.18186
G1 X136.927 Y99.776 E32.25349
G1 X137.233 Y100.468 E32.325
G1 X137.464 Y101.19 E32.39663
G1 X137.618 Y101.931 E32.46815
G1 X137.7 Y103.016 E32.57098
G1 X137.7 Y105.935 E32.84682
G1 X137.66 Y106.691 E32.91836
G1 X137.541 Y107.439 E32.98994
G1 X137.343 Y108.17 E33.06151
G1 X137.069 Y108.877 E33.13316
G1 X136.723 Y109.55 E33.20467
G1 X136.307 Y110.183 E33.27625
G1 X135.598 Y111.008 E33.37905
G1 X135.495 Y111.111 E33.39281
G1 X134.932 Y111.618 E33.46441
G1 X134.319 Y112.062 E33.53594
G1 X133.662 Y112.44 E33.60757
G1 X132.97 Y112.746 E33.67907
G1 X132.248 Y112.977 E33.75071
G1 X131.507 Y113.131 E33.82223
G1 X130.422 Y113.213 E33.92505
G1 X129.187 Y113.213 E34.04176
G1 X129.133 Y113.469 E34.06648
G1 X128.926 Y114.231 E34.1411
G1 X128.551 Y115.363 E34.25379
G1 X128.261 Y116.1 E34.32864
G1 X127.762 Y117.187 E34.44167
G1 X127.411 Y117.855 E34.51298
G1 X126.801 Y118.883 E34.62594
G1 X126.359 Y119.543 E34.701
G1 X125.64 Y120.496 E34.81382
G1 X125.133 Y121.097 E34.88812
G1 X124.31 Y121.97 E35.0015
G1 X123.754 Y122.5 E35.07409
G1 X122.84 Y123.282 E35.18776
G1 X122.21 Y123.763 E35.26266
G1 X121.219 Y124.437 E35.37592
G1 X120.565 Y124.833 E35.44817
G1 X119.528 Y125.387 E35.55927
G1 X118.809 Y125.721 E35.63419
G1 X117.685 Y126.17 E35.74857
G1 X116.952 Y126.418 E35.8217
G1 X115.791 Y126.742 E35.9356
G1 X115.016 Y126.913 E36.0106
G1 X113.85 Y127.103 E36.12224
G1 X113.09 Y127.185 E36.19448
G1 X111.889 Y127.251 E36.30815
G1 X111.095 Y127.251 E36.38318
G1 X109.895 Y127.184 E36.49676
G1 X109.133 Y127.1 E36.5692
G1 X107.969 Y126.909 E36.68067
G1 X107.198 Y126.739 E36.75528
G1 X106.036 Y126.414 E36.8693
G1 X105.305 Y126.166 E36.94225
G1 X104.192 Y125.721 E37.05552
G1 X103.477 Y125.388 E37.13006
G1 X102.43 Y124.829 E37.24222
G1 X101.77 Y124.43 E37.3151
G1 X100.779 Y123.755 E37.42841
G1 X100.151 Y123.274 E37.50316
G1 X99.245 Y122.498 E37.61589
G1 X98.691 Y121.971 E37.68815
G1 X97.867 Y121.097 E37.80166
G1 X97.36 Y120.496 E37.87597
G1 X96.641 Y119.543 E37.98878
G1 X96.201 Y118.888 E38.06335
G1 X95.59 Y117.86 E38.17636
G1 X95.237 Y117.187 E38.24817
G1 X94.74 Y116.104 E38.36078
G1 X94.449 Y115.366 E38.43575
G1 X94.073 Y114.23 E38.54883
G1 X93.867 Y113.469 E38.62333
G1 X93.813 Y113.213 E38.64805
G1 X92.578 Y113.213 E38.76476
G1 X91.822 Y113.173 E38.8363
G1 X91.074 Y113.054 E38.90788
G1 X90.343 Y112.856 E38.97945
G1 X89.636 Y112.582 E39.0511
G1 X88.963 Y112.236 E39.12261
G1 X88.33 Y111.82 E39.19419
G1 X87.505 Y111.111 E39.29699
G1 X87.402 Y111.008 E39.31075
G1 X86.895 Y110.445 E39.38235
G1 X86.451 Y109.832 E39.45388
G1 X86.073 Y109.175 E39.52551
G1 X85.767 Y108.483 E39.59701
G1 X85.536 Y107.761 E39.66865
G1 X85.382 Y107.02 E39.74017
G1 X85.3 Y105.935 E39.84299
G1 X85.3 Y103.016 E40.11884
G1 X85.34 Y102.26 E40.19038
G1 X85.459 Y101.512 E40.26195
G1 X85.657 Y100.781 E40.33352
G1 X85.931 Y100.074 E40.40518
G1 X86.277 Y99.401 E40.47669
G1 X86.693 Y98.768 E40.54827
G1 X87.402 Y97.943 E40.65106
G1 X87.505 Y97.84 E40.66483
G1 X88.068 Y97.333 E40.73643
G0 F4500 X88.302 Y97.594
G1 F1800 X88.902 Y97.163 E40.80624
G1 X89.545 Y96.799 E40.87606
G1 X90.223 Y96.507 E40.94582
G1 X90.929 Y96.29 E41.01562
G1 X91.655 Y96.151 E41.08547
G1 X92.578 Y96.088 E41.1729
G1 X106.271 Y96.088 E42.46689
G1 X107.009 Y96.128 E42.53673
G1 X107.737 Y96.247 E42.60644
G1 X108.449 Y96.445 E42.67628
G1 X109.135 Y96.718 E42.74605
G1 X109.788 Y97.064 E42.81589
G1 X110.4 Y97.478 E42.88571
G1 X110.963 Y97.956 E42.9555
G1 X111.471 Y98.492 E43.02529
G1 X111.502 Y98.533 E43.03015
G1 X111.933 Y98.057 E43.09083
G1 X112.486 Y97.567 E43.16065
G1 X113.088 Y97.14 E43.2304
G1 X113.733 Y96.78 E43.3002
G1 X114.414 Y96.492 E43.37007
G1 X115.121 Y96.279 E43.43985
G1 X115.847 Y96.144 E43.50963
G1 X116.73 Y96.087 E43.59325
G1 X130.422 Y96.088 E44.88715
G1 X131.16 Y96.128 E44.95699
G1 X131.889 Y96.248 E45.02681
G1 X132.601 Y96.445 E45.09662
G1 X133.287 Y96.718 E45.16639
G1 X133.94 Y97.064 E45.23623
G1 X134.551 Y97.479 E45.30602
G1 X135.248 Y98.087 E45.39343
G1 X135.351 Y98.19 E45.40719
G1 X135.844 Y98.74 E45.47699
G1 X136.275 Y99.34 E45.54681
G1 X136.639 Y99.983 E45.61663
G1 X136.931 Y100.661 E45.68639
G1 X137.148 Y101.367 E45.75619
G1 X137.287 Y102.093 E45.82604
G1 X137.35 Y103.016 E45.91347
G1 X137.35 Y105.935 E46.18931
G1 X137.31 Y106.673 E46.25916
G1 X137.191 Y107.401 E46.32887
G1 X136.993 Y108.113 E46.3987
G1 X136.72 Y108.799 E46.46847
G1 X136.374 Y109.452 E46.53831
G1 X135.96 Y110.064 E46.60813
G1 X135.351 Y110.761 E46.6956
G1 X135.248 Y110.864 E46.70937
G1 X134.698 Y111.357 E46.77917
G1 X134.098 Y111.788 E46.84898
G1 X133.455 Y112.152 E46.9188
G1 X132.777 Y112.444 E46.98856
G1 X132.071 Y112.661 E47.05836
G1 X131.345 Y112.8 E47.12821
G1 X130.422 Y112.863 E47.21564
G1 X128.903 Y112.863 E47.35919
G1 X128.79 Y113.396 E47.41067
G1 X128.594 Y114.121 E47.48165
G1 X128.219 Y115.253 E47.59434
G1 X127.943 Y115.954 E47.66553
G1 X127.444 Y117.041 E47.77856
G1 X127.11 Y117.677 E47.84644
G1 X126.5 Y118.705 E47.95941
G1 X126.079 Y119.333 E48.03085
G1 X125.36 Y120.286 E48.14367
G1 X124.878 Y120.857 E48.21428
G1 X124.055 Y121.73 E48.32766
G1 X123.526 Y122.234 E48.39671
G1 X122.612 Y123.016 E48.51038
G1 X122.013 Y123.473 E48.58158
G1 X121.022 Y124.147 E48.69483
G1 X120.4 Y124.524 E48.76357
G1 X119.363 Y125.078 E48.87467
G1 X118.679 Y125.396 E48.94595
G1 X117.555 Y125.845 E49.06033
G1 X116.858 Y126.081 E49.12987
G1 X115.697 Y126.405 E49.24378
G1 X114.96 Y126.567 E49.31509
G1 X113.794 Y126.757 E49.42673
G1 X113.07 Y126.836 E49.49555
G1 X111.869 Y126.902 E49.60922
G1 X111.115 Y126.901 E49.68047
G1 X109.915 Y126.834 E49.79405
G1 X109.19 Y126.755 E49.86297
G1 X108.026 Y126.564 E49.97444
G1 X107.293 Y126.402 E50.04538
G1 X106.131 Y126.077 E50.1594
G1 X105.435 Y125.841 E50.22885
G1 X104.322 Y125.396 E50.34212
G1 X103.642 Y125.08 E50.41298
G1 X102.595 Y124.521 E50.52514
G1 X101.967 Y124.141 E50.59451
G1 X100.976 Y123.466 E50.70782
G1 X100.378 Y123.009 E50.77894
G1 X99.472 Y122.233 E50.89167
G1 X98.946 Y121.731 E50.96038
G1 X98.122 Y120.857 E51.07389
G1 X97.64 Y120.286 E51.14451
G1 X96.921 Y119.333 E51.25732
G1 X96.502 Y118.709 E51.32835
G1 X95.891 Y117.681 E51.44136
G1 X95.555 Y117.041 E51.50967
G1 X95.058 Y115.958 E51.62227
G1 X94.782 Y115.256 E51.69356
G1 X94.406 Y114.12 E51.80664
G1 X94.21 Y113.396 E51.87752
G1 X94.097 Y112.863 E51.929
G1 X92.578 Y112.863 E52.07255
G1 X91.84 Y112.823 E52.14239
G1 X91.112 Y112.704 E52.2121
G1 X90.4 Y112.506 E52.28194
G1 X89.714 Y112.233 E52.35171
G1 X89.061 Y111.887 E52.42155
G1 X88.449 Y111.473 E52.49137
G1 X87.752 Y110.864 E52.57884
