;FLAVOR:UltiGCode
;TIME:1002
;MATERIAL:1659
;MATERIAL2:0
;NOZZLE_DIAMETER:0.4
;Generated with Cura_SteamEngine master

;LAYER_COUNT:67
;LAYER:0
M107
G0 F4500 X83.153 Y99.074 Z0.27
;TYPE:SKIRT
G1 F1800 X83.792 Y98.604 E0.07496
G1 X84.476 Y98.201 E0.14998
G1 X85.196 Y97.868 E0.22495
G1 X85.946 Y97.61 E0.2999
G1 X86.719 Y97.428 E0.37495
G1 X87.505 Y97.325 E0.44986
G1 X88.133 Y97.3 E0.50925
G1 X98.672 Y97.3 E1.50519
G1 X99.464 Y97.34 E1.58013
G1 X100.249 Y97.459 E1.65516
G1 X101.017 Y97.657 E1.7301
G1 X101.762 Y97.932 E1.80515
G1 X102.475 Y98.279 E1.88008
G1 X103.15 Y98.697 E1.95511
G1 X103.779 Y99.18 E2.03006
G1 X104.24 Y99.607 E2.08944
G1 X104.343 Y99.71 E2.1032
G1 X104.876 Y100.298 E2.1782
G1 X105.346 Y100.937 E2.25316
G1 X105.749 Y101.621 E2.32818
G1 X106.082 Y102.341 E2.40315
G1 X106.34 Y103.091 E2.4781
G1 X106.522 Y103.864 E2.55314
G1 X106.625 Y104.65 E2.62806
G1 X106.65 Y105.231 E2.68301
G1 X106.659 Y106.82 E2.83317
G1 X116.35 Y106.802 E3.74898
G1 X116.35 Y105.278 E3.89299
G1 X116.39 Y104.486 E3.96793
G1 X116.509 Y103.701 E4.04296
G1 X116.707 Y102.933 E4.11791
G1 X116.982 Y102.188 E4.19296
G1 X117.329 Y101.475 E4.26789
G1 X117.747 Y100.8 E4.34292
G1 X118.23 Y100.171 E4.41786
G1 X118.657 Y99.71 E4.47724
G1 X118.76 Y99.607 E4.49101
G1 X119.348 Y99.074 E4.56601
G1 X119.987 Y98.604 E4.64097
G1 X120.671 Y98.201 E4.71599
G1 X121.391 Y97.868 E4.79096
G1 X122.141 Y97.61 E4.86591
G1 X122.914 Y97.428 E4.94095
G1 X123.7 Y97.325 E5.01586
G1 X124.328 Y97.3 E5.07526
G1 X134.867 Y97.3 E6.07119
G1 X135.659 Y97.34 E6.14613
G1 X136.444 Y97.459 E6.22116
G1 X137.212 Y97.657 E6.29611
G1 X137.957 Y97.932 E6.37116
G1 X138.67 Y98.279 E6.44609
G1 X139.345 Y98.697 E6.52112
G1 X139.974 Y99.18 E6.59606
G1 X140.435 Y99.607 E6.65544
G1 X140.538 Y99.71 E6.66921
G1 X141.071 Y100.298 E6.74421
G1 X141.541 Y100.937 E6.81917
G1 X141.944 Y101.621 E6.89419
G1 X142.277 Y102.341 E6.96915
G1 X142.535 Y103.091 E7.04411
G1 X142.717 Y103.864 E7.11915
G1 X142.82 Y104.65 E7.19406
G1 X142.845 Y105.278 E7.25346
G1 X142.845 Y108.197 E7.5293
G1 X142.805 Y108.989 E7.60424
G1 X142.686 Y109.774 E7.67927
G1 X142.488 Y110.542 E7.75422
G1 X142.213 Y111.287 E7.82927
G1 X141.866 Y112 E7.9042
G1 X141.448 Y112.675 E7.97923
G1 X140.965 Y113.304 E8.05417
G1 X140.538 Y113.765 E8.11355
G1 X140.435 Y113.868 E8.12732
G1 X139.847 Y114.401 E8.20232
G1 X139.208 Y114.871 E8.27728
G1 X138.524 Y115.274 E8.3523
G1 X137.804 Y115.607 E8.42726
G1 X137.054 Y115.865 E8.50221
G1 X136.281 Y116.047 E8.57726
G1 X135.495 Y116.15 E8.65217
G1 X134.867 Y116.175 E8.71157
G1 X134.753 Y116.175 E8.72234
G1 X134.722 Y116.28 E8.73268
G1 X134.393 Y117.285 E8.83262
G1 X134.109 Y118.026 E8.90761
G1 X133.72 Y118.789 E8.98854
G1 X133.19 Y119.702 E9.0883
G1 X132.757 Y120.367 E9.16329
G1 X132.239 Y121.009 E9.24125
G1 X131.546 Y121.781 E9.33928
G1 X130.987 Y122.344 E9.41426
G1 X130.31 Y122.895 E9.49675
G1 X129.447 Y123.521 E9.5975
G1 X128.782 Y123.953 E9.67243
G1 X128.032 Y124.338 E9.7521
G1 X127.066 Y124.769 E9.85206
G1 X126.326 Y125.055 E9.92703
G1 X125.502 Y125.278 E10.0077
G1 X124.472 Y125.498 E10.10723
G1 X123.689 Y125.625 E10.18219
G1 X122.837 Y125.672 E10.26283
G1 X100.719 Y125.7 E12.35298
G1 X99.877 Y125.656 E12.43266
G1 X98.813 Y125.543 E12.53377
G1 X98.03 Y125.42 E12.60868
G1 X97.214 Y125.202 E12.68849
G1 X96.219 Y124.879 E12.78735
G1 X95.477 Y124.597 E12.86236
G1 X94.706 Y124.205 E12.9441
G1 X93.79 Y123.675 E13.04411
G1 X93.124 Y123.244 E13.11907
G1 X92.784 Y122.984 E13.15952
G1 X92.367 Y122.647 E13.21019
G1 X91.776 Y122.118 E13.28514
G1 X91.456 Y121.782 E13.32899
G1 X90.755 Y121.001 E13.42816
G1 X90.256 Y120.385 E13.50308
G1 X89.797 Y119.68 E13.58258
G1 X89.269 Y118.766 E13.68233
G1 X88.907 Y118.06 E13.7573
G1 X88.599 Y117.264 E13.83796
G1 X88.272 Y116.259 E13.93783
G1 X88.249 Y116.175 E13.94606
G1 X88.133 Y116.175 E13.95702
G1 X87.341 Y116.135 E14.03196
G1 X86.556 Y116.016 E14.10699
G1 X85.788 Y115.818 E14.18194
G1 X85.043 Y115.543 E14.25699
G1 X84.33 Y115.196 E14.33192
G1 X83.655 Y114.778 E14.40695
G1 X83.026 Y114.295 E14.48189
G1 X82.565 Y113.868 E14.54127
G1 X82.462 Y113.765 E14.55504
G1 X81.929 Y113.177 E14.63004
G1 X81.459 Y112.538 E14.705
G1 X81.056 Y111.854 E14.78002
G1 X80.723 Y111.134 E14.85498
G1 X80.465 Y110.384 E14.92994
G1 X80.283 Y109.611 E15.00498
G1 X80.18 Y108.825 E15.07989
G1 X80.155 Y108.197 E15.13929
G1 X80.155 Y105.278 E15.41513
G1 X80.195 Y104.486 E15.49007
G1 X80.314 Y103.701 E15.5651
G1 X80.512 Y102.933 E15.64005
G1 X80.787 Y102.188 E15.7151
G1 X81.134 Y101.475 E15.79003
G1 X81.552 Y100.8 E15.86506
G1 X82.035 Y100.171 E15.94
G1 X82.462 Y99.71 E15.99938
G1 X82.565 Y99.607 E16.01315
G1 X83.153 Y99.074 E16.08815
G0 F4500 X83.388 Y99.335
G1 F1800 X84.014 Y98.877 E16.16145
G1 X84.685 Y98.487 E16.23479
G1 X85.391 Y98.167 E16.30804
G1 X86.127 Y97.922 E16.38134
G1 X86.885 Y97.754 E16.45471
G1 X87.655 Y97.665 E16.52796
G1 X88.133 Y97.65 E16.57315
G1 X98.672 Y97.65 E17.56909
G1 X99.447 Y97.69 E17.64242
G1 X100.213 Y97.809 E17.71568
G1 X100.963 Y98.007 E17.78898
G1 X101.689 Y98.281 E17.86231
G1 X102.382 Y98.628 E17.93555
G1 X103.036 Y99.045 E18.00885
G1 X103.644 Y99.527 E18.08217
G1 X103.993 Y99.854 E18.12737
G1 X104.096 Y99.957 E18.14113
G1 X104.615 Y100.533 E18.2144
G1 X105.073 Y101.159 E18.2877
G1 X105.463 Y101.83 E18.36104
G1 X105.783 Y102.536 E18.43429
G1 X106.028 Y103.272 E18.5076
G1 X106.196 Y104.03 E18.58097
G1 X106.285 Y104.8 E18.65421
G1 X106.3 Y105.233 E18.69516
G1 X106.312 Y107.171 E18.8783
G1 X116.7 Y107.151 E19.85997
G1 X116.7 Y105.278 E20.03697
G1 X116.74 Y104.503 E20.1103
G1 X116.859 Y103.737 E20.18356
G1 X117.057 Y102.987 E20.25686
G1 X117.331 Y102.261 E20.33019
G1 X117.678 Y101.568 E20.40343
G1 X118.095 Y100.914 E20.47673
G1 X118.577 Y100.306 E20.55005
G1 X118.904 Y99.957 E20.59525
G1 X119.007 Y99.854 E20.60901
G1 X119.583 Y99.335 E20.68228
G1 X120.209 Y98.877 E20.75558
G1 X120.88 Y98.487 E20.82892
G1 X121.586 Y98.167 E20.90217
G1 X122.322 Y97.922 E20.97548
G1 X123.08 Y97.754 E21.04884
G1 X123.85 Y97.665 E21.12209
G1 X124.328 Y97.65 E21.16729
G1 X134.867 Y97.65 E22.16322
G1 X135.642 Y97.69 E22.23656
G1 X136.408 Y97.809 E22.30981
G1 X137.158 Y98.007 E22.38312
G1 X137.884 Y98.281 E22.45645
G1 X138.577 Y98.628 E22.52969
G1 X139.231 Y99.045 E22.60298
G1 X139.839 Y99.527 E22.6763
G1 X140.188 Y99.854 E22.7215
G1 X140.291 Y99.957 E22.73526
G1 X140.81 Y100.533 E22.80853
G1 X141.268 Y101.159 E22.88183
G1 X141.658 Y101.83 E22.95517
G1 X141.978 Y102.536 E23.02843
G1 X142.223 Y103.272 E23.10173
G1 X142.391 Y104.03 E23.1751
G1 X142.48 Y104.8 E23.24835
G1 X142.495 Y105.278 E23.29354
G1 X142.495 Y108.197 E23.56939
G1 X142.455 Y108.972 E23.64272
G1 X142.336 Y109.738 E23.71598
G1 X142.138 Y110.488 E23.78928
G1 X141.864 Y111.214 E23.86261
G1 X141.517 Y111.907 E23.93585
G1 X141.1 Y112.561 E24.00915
G1 X140.618 Y113.169 E24.08247
G1 X140.291 Y113.518 E24.12766
G1 X140.188 Y113.621 E24.14143
G1 X139.612 Y114.14 E24.2147
G1 X138.986 Y114.598 E24.288
G1 X138.315 Y114.988 E24.36134
G1 X137.609 Y115.308 E24.43459
G1 X136.873 Y115.553 E24.50789
G1 X136.115 Y115.721 E24.58126
G1 X135.345 Y115.81 E24.65451
G1 X134.867 Y115.825 E24.69971
G1 X134.492 Y115.825 E24.73514
G1 X134.39 Y116.171 E24.76923
G1 X134.061 Y117.176 E24.86916
G1 X133.782 Y117.9 E24.94249
G1 X133.417 Y118.613 E25.01818
G1 X132.887 Y119.526 E25.11794
G1 X132.463 Y120.176 E25.19128
G1 X131.979 Y120.775 E25.26405
G1 X131.286 Y121.547 E25.36209
G1 X130.739 Y122.096 E25.43533
G1 X130.104 Y122.611 E25.51259
G1 X129.241 Y123.237 E25.61334
G1 X128.591 Y123.66 E25.68663
G1 X127.889 Y124.018 E25.76109
G1 X126.923 Y124.449 E25.86105
G1 X126.199 Y124.728 E25.93438
G1 X125.429 Y124.936 E26.00975
G1 X124.399 Y125.156 E26.10928
G1 X123.633 Y125.279 E26.18259
G1 X122.837 Y125.322 E26.25793
G1 X100.719 Y125.35 E28.34808
G1 X99.914 Y125.308 E28.42425
G1 X98.85 Y125.195 E28.52537
G1 X98.084 Y125.073 E28.59867
G1 X97.322 Y124.869 E28.67321
G1 X96.327 Y124.546 E28.77207
G1 X95.602 Y124.269 E28.84541
G1 X94.881 Y123.902 E28.92187
G1 X93.965 Y123.372 E29.02187
G1 X93.315 Y122.95 E29.09511
G1 X93.004 Y122.712 E29.13212
G1 X92.587 Y122.375 E29.18278
G1 X92.01 Y121.857 E29.25606
G1 X91.717 Y121.548 E29.2963
G1 X91.016 Y120.767 E29.39547
G1 X90.528 Y120.164 E29.46878
G1 X90.1 Y119.505 E29.54304
G1 X89.572 Y118.591 E29.64279
G1 X89.219 Y117.9 E29.71611
G1 X88.932 Y117.155 E29.79156
G1 X88.605 Y116.15 E29.89143
G1 X88.518 Y115.825 E29.92323
G1 X88.133 Y115.825 E29.95961
G1 X87.358 Y115.785 E30.03294
G1 X86.592 Y115.666 E30.1062
G1 X85.842 Y115.468 E30.1795
G1 X85.116 Y115.194 E30.25283
G1 X84.423 Y114.847 E30.32607
G1 X83.769 Y114.43 E30.39937
G1 X83.161 Y113.948 E30.47269
G1 X82.812 Y113.621 E30.51788
G1 X82.709 Y113.518 E30.53165
G1 X82.19 Y112.942 E30.60492
G1 X81.732 Y112.316 E30.67822
G1 X81.342 Y111.645 E30.75156
G1 X81.022 Y110.939 E30.82481
G1 X80.777 Y110.203 E30.89811
G1 X80.609 Y109.445 E30.97148
G1 X80.52 Y108.675 E31.04473
G1 X80.505 Y108.197 E31.08993
G1 X80.505 Y105.278 E31.36577
G1 X80.545 Y104.503 E31.43911
G1 X80.664 Y103.737 E31.51236
G1 X80.862 Y102.987 E31.58567
G1 X81.136 Y102.261 E31.659
G1 X81.483 Y101.568 E31.73224
G1 X81.9 Y100.914 E31.80553
G1 X82.382 Y100.306 E31.87885
G1 X82.709 Y99.957 E31.92405
G1 X82.812 Y99.854 E31.93781
G1 X83.388 Y99.335 E32.01108
G0 F4500 X83.623 Y99.595
G1 F1800 X84.236 Y99.151 E32.08261
G1 X84.893 Y98.773 E32.15424
G1 X85.585 Y98.467 E32.22574
G1 X86.307 Y98.236 E32.29738
G1 X87.048 Y98.082 E32.3689
G1 X88.133 Y98 E32.47172
G1 X98.672 Y98 E33.46766
G1 X99.428 Y98.04 E33.5392
G1 X100.176 Y98.159 E33.61078
G1 X100.907 Y98.357 E33.68234
G1 X101.614 Y98.631 E33.754
G1 X102.287 Y98.977 E33.82551
G1 X102.92 Y99.393 E33.89709
G1 X103.745 Y100.102 E33.99989
G1 X103.848 Y100.205 E34.01365
G1 X104.355 Y100.768 E34.08525
G1 X104.799 Y101.381 E34.15678
G1 X105.177 Y102.038 E34.2284
G1 X105.483 Y102.73 E34.29991
G1 X105.714 Y103.452 E34.37154
G1 X105.868 Y104.193 E34.44306
G1 X105.95 Y105.235 E34.54184
G1 X105.964 Y107.521 E34.75787
G1 X117.05 Y107.501 E35.8055
G1 X117.05 Y105.278 E36.01557
G1 X117.09 Y104.522 E36.08711
G1 X117.209 Y103.774 E36.15869
G1 X117.407 Y103.043 E36.23026
G1 X117.681 Y102.336 E36.30191
G1 X118.027 Y101.663 E36.37342
G1 X118.443 Y101.03 E36.445
G1 X119.152 Y100.205 E36.5478
G1 X119.255 Y100.102 E36.56156
G1 X119.818 Y99.595 E36.63316
G1 X120.431 Y99.151 E36.70469
G1 X121.088 Y98.773 E36.77632
G1 X121.78 Y98.467 E36.84782
G1 X122.502 Y98.236 E36.91945
G1 X123.243 Y98.082 E36.99098
G1 X124.328 Y98 E37.0938
G1 X134.867 Y98 E38.08974
G1 X135.623 Y98.04 E38.16128
G1 X136.371 Y98.159 E38.23285
G1 X137.102 Y98.357 E38.30442
G1 X137.809 Y98.631 E38.37607
G1 X138.482 Y98.977 E38.44759
G1 X139.115 Y99.393 E38.51917
G1 X139.94 Y100.102 E38.62196
G1 X140.043 Y100.205 E38.63573
G1 X140.55 Y100.768 E38.70733
G1 X140.994 Y101.381 E38.77885
G1 X141.372 Y102.038 E38.85048
G1 X141.678 Y102.73 E38.92198
G1 X141.909 Y103.452 E38.99362
G1 X142.063 Y104.193 E39.06514
G1 X142.145 Y105.278 E39.16797
G1 X142.145 Y108.197 E39.44381
G1 X142.105 Y108.953 E39.51535
G1 X141.986 Y109.701 E39.58693
G1 X141.788 Y110.432 E39.6585
G1 X141.514 Y111.139 E39.73015
G1 X141.168 Y111.812 E39.80166
G1 X140.752 Y112.445 E39.87324
G1 X140.043 Y113.27 E39.97604
G1 X139.94 Y113.373 E39.9898
G1 X139.377 Y113.88 E40.0614
G1 X138.764 Y114.324 E40.13293
G1 X138.107 Y114.702 E40.20456
G1 X137.415 Y115.008 E40.27606
G1 X136.693 Y115.239 E40.3477
G1 X135.952 Y115.393 E40.41922
G1 X134.867 Y115.475 E40.52204
G1 X134.213 Y115.475 E40.58384
G1 X134.167 Y115.693 E40.6049
G1 X134.057 Y116.062 E40.64129
G1 X133.728 Y117.067 E40.74122
G1 X133.455 Y117.774 E40.81284
G1 X133.114 Y118.437 E40.88329
G1 X132.584 Y119.35 E40.98305
G1 X132.17 Y119.984 E41.05461
G1 X131.718 Y120.541 E41.1224
G1 X131.025 Y121.313 E41.22043
G1 X130.49 Y121.849 E41.292
G1 X129.899 Y122.328 E41.36389
G1 X129.036 Y122.954 E41.46464
G1 X128.4 Y123.366 E41.53625
G1 X127.746 Y123.698 E41.60556
G1 X126.78 Y124.129 E41.70552
G1 X126.074 Y124.401 E41.77702
G1 X125.356 Y124.594 E41.84728
G1 X124.326 Y124.814 E41.94681
G1 X123.578 Y124.933 E42.01838
G1 X122.836 Y124.972 E42.0886
G1 X100.718 Y125 E44.17875
G1 X99.951 Y124.96 E44.25133
G1 X98.887 Y124.847 E44.35244
G1 X98.139 Y124.727 E44.42403
G1 X97.43 Y124.536 E44.49342
G1 X96.435 Y124.213 E44.59228
G1 X95.728 Y123.942 E44.66383
G1 X95.057 Y123.599 E44.73505
G1 X94.141 Y123.069 E44.83505
G1 X93.224 Y122.439 E44.94019
G1 X92.807 Y122.102 E44.99086
G1 X92.244 Y121.596 E45.06239
G1 X91.977 Y121.315 E45.09902
G1 X91.276 Y120.534 E45.19819
G1 X90.801 Y119.944 E45.26977
G1 X90.403 Y119.33 E45.33892
G1 X89.875 Y118.416 E45.43867
G1 X89.531 Y117.741 E45.51026
G1 X89.265 Y117.047 E45.5805
G1 X88.938 Y116.042 E45.68037
G1 X88.802 Y115.475 E45.73547
G1 X88.133 Y115.475 E45.79869
G1 X87.377 Y115.435 E45.87023
G1 X86.629 Y115.316 E45.94181
G1 X85.898 Y115.118 E46.01338
G1 X85.191 Y114.844 E46.08503
G1 X84.518 Y114.498 E46.15654
G1 X83.885 Y114.082 E46.22812
G1 X83.06 Y113.373 E46.33092
G1 X82.957 Y113.27 E46.34469
G1 X82.45 Y112.707 E46.41628
G1 X82.006 Y112.094 E46.48781
G1 X81.628 Y111.437 E46.55944
G1 X81.322 Y110.745 E46.63094
G1 X81.091 Y110.023 E46.70258
G1 X80.937 Y109.282 E46.7741
G1 X80.855 Y108.197 E46.87692
G1 X80.855 Y105.278 E47.15277
G1 X80.895 Y104.522 E47.22431
G1 X81.014 Y103.774 E47.29589
G1 X81.212 Y103.043 E47.36745
G1 X81.486 Y102.336 E47.43911
G1 X81.832 Y101.663 E47.51062
G1 X82.248 Y101.03 E47.5822
G1 X82.957 Y100.205 E47.685
G1 X83.06 Y100.102 E47.69876
G1 X83.623 Y99.595 E47.77036
G0 F4500 X83.857 Y99.856
G1 F1800 X84.457 Y99.425 E47.84017
G1 X85.1 Y99.061 E47.90999
G1 X85.778 Y98.769 E47.97976
G1 X86.484 Y98.552 E48.04955
G1 X87.21 Y98.413 E48.11941
G1 X88.133 Y98.35 E48.20683
G1 X98.672 Y98.35 E49.20277
G1 X99.41 Y98.39 E49.27261
G1 X100.138 Y98.509 E49.34232
G1 X100.85 Y98.707 E49.41216
G1 X101.536 Y98.98 E49.48193
G1 X102.189 Y99.326 E49.55176
G1 X102.801 Y99.74 E49.62159
G1 X103.498 Y100.349 E49.70906
G1 X103.601 Y100.452 E49.72282
G1 X104.094 Y101.002 E49.79262
G1 X104.525 Y101.602 E49.86243
G1 X104.889 Y102.245 E49.93226
G1 X105.181 Y102.923 E50.00202
G1 X105.398 Y103.629 E50.07181
G1 X105.537 Y104.355 E50.14167
G1 X105.6 Y105.237 E50.22523
G1 X105.616 Y107.872 E50.47424
G1 X117.4 Y107.85 E51.58783
G1 X117.4 Y105.278 E51.83088
G1 X117.44 Y104.54 E51.90073
G1 X117.559 Y103.812 E51.97044
G1 X117.757 Y103.1 E52.04027
G1 X118.03 Y102.414 E52.11005
G1 X118.376 Y101.761 E52.17988
G1 X118.79 Y101.149 E52.24971
G1 X119.399 Y100.452 E52.33717
G1 X119.502 Y100.349 E52.35094
G1 X120.052 Y99.856 E52.42074
G1 X120.652 Y99.425 E52.49055
G1 X121.295 Y99.061 E52.56037
G1 X121.973 Y98.769 E52.63013
G1 X122.679 Y98.552 E52.69993
G1 X123.405 Y98.413 E52.76978
G1 X124.328 Y98.35 E52.85721
G1 X134.867 Y98.35 E53.85315
G1 X135.605 Y98.39 E53.92299
G1 X136.333 Y98.509 E53.9927
G1 X137.045 Y98.707 E54.06254
G1 X137.731 Y98.98 E54.13231
G1 X138.384 Y99.326 E54.20214
G1 X138.996 Y99.74 E54.27197
G1 X139.693 Y100.349 E54.35943
G1 X139.796 Y100.452 E54.3732
G1 X140.289 Y101.002 E54.443
G1 X140.72 Y101.602 E54.51281
G1 X141.084 Y102.245 E54.58264
G1 X141.376 Y102.923 E54.6524
G1 X141.593 Y103.629 E54.72219
G1 X141.732 Y104.355 E54.79205
G1 X141.795 Y105.278 E54.87947
G1 X141.795 Y108.197 E55.15532
G1 X141.755 Y108.935 E55.22516
G1 X141.636 Y109.663 E55.29487
G1 X141.438 Y110.375 E55.36471
G1 X141.165 Y111.061 E55.43448
G1 X140.819 Y111.714 E55.50432
G1 X140.405 Y112.326 E55.57414
G1 X139.796 Y113.023 E55.66161
G1 X139.693 Y113.126 E55.67537
G1 X139.143 Y113.619 E55.74517
G1 X138.543 Y114.05 E55.81498
G1 X137.9 Y114.414 E55.88481
G1 X137.222 Y114.706 E55.95457
G1 X136.516 Y114.923 E56.02437
G1 X135.79 Y115.062 E56.09422
G1 X134.867 Y115.125 E56.18164
G1 X133.924 Y115.125 E56.27076
G1 X133.724 Y115.953 E56.35125
G1 X133.395 Y116.958 E56.45119
G1 X133.128 Y117.647 E56.52101
G1 X132.812 Y118.261 E56.58627
G1 X132.282 Y119.174 E56.68603
G1 X131.877 Y119.792 E56.75586
G1 X131.458 Y120.307 E56.8186
G1 X130.765 Y121.079 E56.91663
G1 X130.242 Y121.601 E56.98646
G1 X129.693 Y122.045 E57.05319
G1 X128.83 Y122.671 E57.15394
