;FLAVOR:UltiGCode
;TIME:1741
;MATERIAL:2834
;MATERIAL2:0
;NOZZLE_DIAMETER:0.4
;Generated with Cura_SteamEngine master

;LAYER_COUNT:101
;LAYER:0
M107
G0 F4500 X66.647 Y97.017 Z0.27
;TYPE:SKIRT
G1 F1800 X67.331 Y96.614 E0.07502
G1 X68.051 Y96.281 E0.14999
G1 X68.801 Y96.023 E0.22494
G1 X69.574 Y95.841 E0.29998
G1 X70.36 Y95.738 E0.3749
G1 X70.988 Y95.713 E0.43429
G1 X77.59 Y95.713 E1.05818
G1 X78.382 Y95.753 E1.13312
G1 X79.167 Y95.872 E1.20815
G1 X79.935 Y96.07 E1.2831
G1 X80.68 Y96.345 E1.35814
G1 X81.393 Y96.692 E1.43308
G1 X82.068 Y97.11 E1.50811
G1 X82.697 Y97.593 E1.58305
G1 X83.158 Y98.02 E1.64243
G1 X83.261 Y98.123 E1.65619
G1 X83.794 Y98.711 E1.73119
G1 X84.264 Y99.35 E1.80615
G1 X84.667 Y100.034 E1.88118
G1 X85 Y100.754 E1.95614
G1 X85.258 Y101.504 E2.03109
G1 X85.44 Y102.277 E2.10614
G1 X85.543 Y103.063 E2.18105
G1 X85.568 Y103.691 E2.24044
G1 X85.568 Y107.65 E2.61457
G1 X137.432 Y107.65 E7.51572
G1 X137.432 Y103.691 E7.88984
G1 X137.472 Y102.899 E7.96478
G1 X137.591 Y102.114 E8.03981
G1 X137.789 Y101.346 E8.11476
G1 X138.064 Y100.601 E8.18981
G1 X138.411 Y99.888 E8.26474
G1 X138.829 Y99.213 E8.33977
G1 X139.312 Y98.584 E8.41471
G1 X139.739 Y98.123 E8.47409
G1 X139.842 Y98.02 E8.48786
G1 X140.43 Y97.487 E8.56285
G1 X141.069 Y97.017 E8.63782
G1 X141.753 Y96.614 E8.71284
G1 X142.473 Y96.281 E8.7878
G1 X143.223 Y96.023 E8.86275
G1 X143.996 Y95.841 E8.9378
G1 X144.782 Y95.738 E9.01271
G1 X145.41 Y95.713 E9.07211
G1 X152.012 Y95.713 E9.69599
G1 X152.804 Y95.753 E9.77093
G1 X153.589 Y95.872 E9.84596
G1 X154.357 Y96.07 E9.92091
G1 X155.102 Y96.345 E9.99596
G1 X155.815 Y96.692 E10.07089
G1 X156.49 Y97.11 E10.14592
G1 X157.119 Y97.593 E10.22086
G1 X157.58 Y98.02 E10.28024
G1 X157.683 Y98.123 E10.29401
G1 X158.216 Y98.711 E10.36901
G1 X158.686 Y99.35 E10.44397
G1 X159.089 Y100.034 E10.51899
G1 X159.422 Y100.754 E10.59396
G1 X159.68 Y101.504 E10.66891
G1 X159.862 Y102.277 E10.74395
G1 X159.965 Y103.063 E10.81886
G1 X159.99 Y103.71 E10.88005
G1 X159.963 Y114.9 E11.93751
G1 X159.921 Y115.692 E12.01246
G1 X159.866 Y116.112 E12.05249
G1 X159.781 Y116.649 E12.10387
G1 X159.618 Y117.426 E12.17889
G1 X159.489 Y117.861 E12.22177
G1 X159.162 Y118.863 E12.32137
G1 X158.879 Y119.604 E12.39633
G1 X158.484 Y120.378 E12.47845
G1 X157.952 Y121.293 E12.57847
G1 X157.519 Y121.958 E12.65346
G1 X157.264 Y122.291 E12.69309
G1 X156.936 Y122.696 E12.74234
G1 X156.406 Y123.287 E12.81736
G1 X156.082 Y123.596 E12.85967
G1 X155.298 Y124.301 E12.95931
G1 X154.682 Y124.801 E13.03428
G1 X153.983 Y125.257 E13.11315
G1 X153.076 Y125.783 E13.21223
G1 X152.37 Y126.146 E13.28725
G1 X151.969 Y126.315 E13.32837
G1 X151.468 Y126.509 E13.37914
G1 X150.714 Y126.758 E13.45418
G1 X150.269 Y126.866 E13.49746
G1 X149.244 Y127.085 E13.5965
G1 X148.461 Y127.212 E13.67146
G1 X147.602 Y127.259 E13.75276
G1 X75.952 Y127.288 E20.52369
G1 X75.13 Y127.245 E20.60147
G1 X74.078 Y127.135 E20.70143
G1 X73.294 Y127.013 E20.77641
G1 X72.887 Y126.917 E20.81592
G1 X72.368 Y126.78 E20.86665
G1 X71.612 Y126.539 E20.94163
G1 X71.175 Y126.36 E20.98626
G1 X70.216 Y125.933 E21.08546
G1 X69.508 Y125.574 E21.16048
G1 X68.786 Y125.107 E21.24174
G1 X67.92 Y124.477 E21.34294
G1 X67.303 Y123.979 E21.41787
G1 X66.701 Y123.379 E21.49819
G1 X66.004 Y122.605 E21.59662
G1 X65.503 Y121.989 E21.67165
G1 X65.048 Y121.293 E21.75023
G1 X64.516 Y120.378 E21.85025
G1 X64.152 Y119.673 E21.92523
G1 X63.835 Y118.856 E22.00804
G1 X63.509 Y117.854 E22.10762
G1 X63.302 Y117.088 E22.1826
G1 X63.167 Y116.25 E22.26281
G1 X63.054 Y115.187 E22.36383
G1 X63.01 Y114.355 E22.44257
G1 X63.01 Y103.691 E23.45032
G1 X63.05 Y102.899 E23.52525
G1 X63.169 Y102.114 E23.60028
G1 X63.367 Y101.346 E23.67523
G1 X63.642 Y100.601 E23.75028
G1 X63.989 Y99.888 E23.82521
G1 X64.407 Y99.213 E23.90024
G1 X64.89 Y98.584 E23.97518
G1 X65.317 Y98.123 E24.03457
G1 X65.42 Y98.02 E24.04833
G1 X66.008 Y97.487 E24.12333
G1 X66.647 Y97.017 E24.19829
G0 F4500 X66.869 Y97.29
G1 F1800 X67.54 Y96.9 E24.27163
G1 X68.246 Y96.58 E24.34488
G1 X68.982 Y96.335 E24.41819
G1 X69.74 Y96.167 E24.49155
G1 X70.51 Y96.078 E24.5648
G1 X70.988 Y96.063 E24.61
G1 X77.59 Y96.063 E25.23389
G1 X78.365 Y96.103 E25.30722
G1 X79.131 Y96.222 E25.38048
G1 X79.881 Y96.42 E25.45378
G1 X80.607 Y96.694 E25.52711
G1 X81.3 Y97.041 E25.60035
G1 X81.954 Y97.458 E25.67365
G1 X82.562 Y97.94 E25.74697
G1 X82.911 Y98.267 E25.79216
G1 X83.014 Y98.37 E25.80593
G1 X83.533 Y98.946 E25.8792
G1 X83.991 Y99.572 E25.9525
G1 X84.381 Y100.243 E26.02584
G1 X84.701 Y100.949 E26.09909
G1 X84.946 Y101.685 E26.17239
G1 X85.114 Y102.443 E26.24576
G1 X85.203 Y103.213 E26.31901
G1 X85.218 Y103.691 E26.36421
G1 X85.218 Y108 E26.77141
G1 X137.782 Y108 E31.7387
G1 X137.782 Y103.691 E32.1459
G1 X137.822 Y102.916 E32.21924
G1 X137.941 Y102.15 E32.29249
G1 X138.139 Y101.4 E32.3658
G1 X138.413 Y100.674 E32.43913
G1 X138.76 Y99.981 E32.51237
G1 X139.177 Y99.327 E32.58567
G1 X139.659 Y98.719 E32.65899
G1 X139.986 Y98.37 E32.70418
G1 X140.089 Y98.267 E32.71795
G1 X140.665 Y97.748 E32.79121
G1 X141.291 Y97.29 E32.86451
G1 X141.962 Y96.9 E32.93786
G1 X142.668 Y96.58 E33.01111
G1 X143.404 Y96.335 E33.08441
G1 X144.162 Y96.167 E33.15778
G1 X144.932 Y96.078 E33.23103
G1 X145.41 Y96.063 E33.27622
G1 X152.012 Y96.063 E33.90011
G1 X152.787 Y96.103 E33.97345
G1 X153.553 Y96.222 E34.0467
G1 X154.303 Y96.42 E34.12001
G1 X155.029 Y96.694 E34.19334
G1 X155.722 Y97.041 E34.26658
G1 X156.376 Y97.458 E34.33987
G1 X156.984 Y97.94 E34.41319
G1 X157.333 Y98.267 E34.45839
G1 X157.436 Y98.37 E34.47215
G1 X157.955 Y98.946 E34.54542
G1 X158.413 Y99.572 E34.61872
G1 X158.803 Y100.243 E34.69206
G1 X159.123 Y100.949 E34.76531
G1 X159.368 Y101.685 E34.83862
G1 X159.536 Y102.443 E34.91199
G1 X159.625 Y103.213 E34.98524
G1 X159.64 Y103.709 E35.03213
G1 X159.613 Y114.899 E36.08959
G1 X159.52 Y116.057 E36.19937
G1 X159.435 Y116.594 E36.25075
G1 X159.275 Y117.353 E36.32405
G1 X159.157 Y117.753 E36.36346
G1 X158.83 Y118.755 E36.46307
G1 X158.551 Y119.479 E36.53639
G1 X158.181 Y120.202 E36.61314
G1 X157.649 Y121.117 E36.71316
G1 X156.992 Y122.071 E36.82262
G1 X156.664 Y122.476 E36.87187
G1 X156.145 Y123.053 E36.94521
G1 X155.848 Y123.335 E36.98391
G1 X155.064 Y124.04 E37.08355
G1 X154.461 Y124.529 E37.15692
G1 X153.807 Y124.955 E37.23068
G1 X152.9 Y125.481 E37.32976
G1 X152.21 Y125.835 E37.40304
G1 X151.842 Y125.988 E37.44071
G1 X151.341 Y126.182 E37.49148
G1 X150.604 Y126.425 E37.56481
G1 X150.196 Y126.524 E37.60448
G1 X149.171 Y126.743 E37.70353
G1 X148.405 Y126.866 E37.77685
G1 X147.602 Y126.909 E37.85284
G1 X75.952 Y126.938 E44.62377
G1 X75.166 Y126.897 E44.69814
G1 X74.114 Y126.787 E44.7981
G1 X72.976 Y126.579 E44.90742
G1 X72.457 Y126.442 E44.95815
G1 X71.719 Y126.205 E45.0314
G1 X71.317 Y126.04 E45.07246
G1 X70.358 Y125.613 E45.17166
G1 X69.667 Y125.262 E45.24491
G1 X68.992 Y124.824 E45.32094
G1 X68.126 Y124.194 E45.42215
G1 X67.523 Y123.706 E45.49545
G1 X66.961 Y123.145 E45.57049
G1 X66.264 Y122.371 E45.66892
G1 X65.776 Y121.768 E45.74223
G1 X65.351 Y121.117 E45.8157
G1 X64.819 Y120.202 E45.91572
G1 X64.464 Y119.513 E45.98896
G1 X64.168 Y118.748 E46.06648
G1 X63.842 Y117.746 E46.16605
G1 X63.641 Y116.997 E46.23934
G1 X63.515 Y116.213 E46.31438
G1 X63.402 Y115.15 E46.4154
G1 X63.36 Y114.355 E46.49063
G1 X63.36 Y103.691 E47.49838
G1 X63.4 Y102.916 E47.57171
G1 X63.519 Y102.15 E47.64497
G1 X63.717 Y101.4 E47.71827
G1 X63.991 Y100.674 E47.7916
G1 X64.338 Y99.981 E47.86484
G1 X64.755 Y99.327 E47.93814
G1 X65.237 Y98.719 E48.01146
G1 X65.564 Y98.37 E48.05665
G1 X65.667 Y98.267 E48.07042
G1 X66.243 Y97.748 E48.14369
G1 X66.869 Y97.29 E48.21699
G0 F4500 X67.091 Y97.564
G1 F1800 X67.748 Y97.186 E48.28862
G1 X68.44 Y96.88 E48.36012
G1 X69.162 Y96.649 E48.43175
G1 X69.903 Y96.495 E48.50327
G1 X70.988 Y96.413 E48.6061
G1 X77.59 Y96.413 E49.22999
G1 X78.346 Y96.453 E49.30153
G1 X79.094 Y96.572 E49.3731
G1 X79.825 Y96.77 E49.44467
G1 X80.532 Y97.044 E49.51633
G1 X81.205 Y97.39 E49.58784
G1 X81.838 Y97.806 E49.65942
G1 X82.663 Y98.515 E49.76222
G1 X82.766 Y98.618 E49.77598
G1 X83.273 Y99.181 E49.84758
G1 X83.717 Y99.794 E49.9191
G1 X84.095 Y100.451 E49.99073
G1 X84.401 Y101.143 E50.06224
G1 X84.632 Y101.865 E50.13387
G1 X84.786 Y102.606 E50.20539
G1 X84.868 Y103.691 E50.30822
G1 X84.868 Y108.35 E50.74849
G1 X138.132 Y108.35 E55.78194
G1 X138.132 Y103.691 E56.22222
G1 X138.172 Y102.935 E56.29376
G1 X138.291 Y102.187 E56.36533
G1 X138.489 Y101.456 E56.4369
G1 X138.763 Y100.749 E56.50856
G1 X139.109 Y100.076 E56.58007
G1 X139.525 Y99.443 E56.65165
G1 X140.234 Y98.618 E56.75444
G1 X140.337 Y98.515 E56.76821
G1 X140.9 Y98.008 E56.83981
G1 X141.513 Y97.564 E56.91133
G1 X142.17 Y97.186 E56.98296
G1 X142.862 Y96.88 E57.05447
G1 X143.584 Y96.649 E57.1261
G1 X144.325 Y96.495 E57.19762
G1 X145.41 Y96.413 E57.30045
G1 X152.012 Y96.413 E57.92434
G1 X152.768 Y96.453 E57.99588
G1 X153.516 Y96.572 E58.06745
G1 X154.247 Y96.77 E58.13902
G1 X154.954 Y97.044 E58.21068
G1 X155.627 Y97.39 E58.28219
G1 X156.26 Y97.806 E58.35377
G1 X157.085 Y98.515 E58.45656
G1 X157.188 Y98.618 E58.47033
G1 X157.695 Y99.181 E58.54193
G1 X158.139 Y99.794 E58.61345
G1 X158.517 Y100.451 E58.68508
G1 X158.823 Y101.143 E58.75658
G1 X159.054 Y101.865 E58.82822
G1 X159.208 Y102.606 E58.89974
G1 X159.29 Y103.708 E59.00417
G1 X159.263 Y114.898 E60.06163
G1 X159.175 Y116.003 E60.16638
G1 X159.09 Y116.54 E60.21776
G1 X158.932 Y117.281 E60.28936
G1 X158.824 Y117.644 E60.32515
G1 X158.497 Y118.646 E60.42475
G1 X158.224 Y119.353 E60.49637
G1 X157.879 Y120.026 E60.56784
G1 X157.347 Y120.941 E60.66786
G1 X156.72 Y121.851 E60.77229
G1 X156.392 Y122.256 E60.82154
G1 X155.614 Y123.075 E60.92829
G1 X154.83 Y123.78 E61.02792
G1 X154.24 Y124.256 E61.09956
G1 X153.632 Y124.652 E61.16813
G1 X152.725 Y125.178 E61.26721
G1 X151.716 Y125.662 E61.37297
G1 X151.215 Y125.856 E61.42374
G1 X150.495 Y126.092 E61.49534
G1 X150.123 Y126.182 E61.53151
G1 X149.098 Y126.401 E61.63055
G1 X148.35 Y126.52 E61.70213
G1 X147.602 Y126.559 E61.77291
G1 X75.952 Y126.588 E68.54384
G1 X75.203 Y126.549 E68.61471
G1 X74.151 Y126.439 E68.71467
G1 X73.066 Y126.24 E68.81891
G1 X72.547 Y126.103 E68.86964
G1 X71.826 Y125.872 E68.94118
G1 X71.46 Y125.721 E68.9786
G1 X70.501 Y125.294 E69.0778
G1 X69.826 Y124.949 E69.14944
G1 X69.198 Y124.541 E69.22021
G1 X68.332 Y123.911 E69.32141
G1 X67.744 Y123.434 E69.39296
G1 X67.221 Y122.91 E69.46292
G1 X66.524 Y122.136 E69.56135
G1 X66.048 Y121.548 E69.63284
G1 X65.653 Y120.941 E69.70128
G1 X65.121 Y120.026 E69.8013
G1 X64.776 Y119.353 E69.87277
G1 X64.501 Y118.64 E69.94499
G1 X64.175 Y117.638 E70.04456
G1 X63.979 Y116.906 E70.11617
G1 X63.863 Y116.176 E70.18602
G1 X63.75 Y115.113 E70.28704
G1 X63.71 Y114.355 E70.35877
G1 X63.71 Y103.691 E71.36652
G1 X63.75 Y102.935 E71.43806
G1 X63.869 Y102.187 E71.50964
G1 X64.067 Y101.456 E71.58121
G1 X64.341 Y100.749 E71.65286
G1 X64.687 Y100.076 E71.72437
G1 X65.103 Y99.443 E71.79595
G1 X65.812 Y98.618 E71.89875
G1 X65.915 Y98.515 E71.91251
G1 X66.478 Y98.008 E71.98411
G1 X67.091 Y97.564 E72.05564
G0 F4500 X67.312 Y97.838
G1 F1800 X67.955 Y97.474 E72.12546
G1 X68.633 Y97.182 E72.19522
G1 X69.339 Y96.965 E72.26502
G1 X70.065 Y96.826 E72.33487
G1 X70.988 Y96.763 E72.4223
G1 X77.59 Y96.763 E73.04619
G1 X78.328 Y96.803 E73.11603
G1 X79.056 Y96.922 E73.18574
G1 X79.768 Y97.12 E73.25558
G1 X80.454 Y97.393 E73.32535
G1 X81.107 Y97.739 E73.39518
G1 X81.719 Y98.153 E73.46501
G1 X82.416 Y98.762 E73.55248
G1 X82.519 Y98.865 E73.56624
G1 X83.012 Y99.415 E73.63604
G1 X83.443 Y100.015 E73.70585
G1 X83.807 Y100.658 E73.77568
G1 X84.099 Y101.336 E73.84544
G1 X84.316 Y102.042 E73.91523
G1 X84.455 Y102.768 E73.98509
G1 X84.518 Y103.691 E74.07251
G1 X84.518 Y108.7 E74.54586
G1 X138.482 Y108.7 E79.64546
G1 X138.482 Y103.691 E80.11881
G1 X138.522 Y102.953 E80.18866
G1 X138.641 Y102.225 E80.25837
G1 X138.839 Y101.513 E80.3282
G1 X139.112 Y100.827 E80.39797
G1 X139.458 Y100.174 E80.46781
G1 X139.872 Y99.562 E80.53763
G1 X140.481 Y98.865 E80.6251
G1 X140.584 Y98.762 E80.63887
G1 X141.134 Y98.269 E80.70866
G1 X141.734 Y97.838 E80.77848
G1 X142.377 Y97.474 E80.8483
G1 X143.055 Y97.182 E80.91806
G1 X143.761 Y96.965 E80.98786
G1 X144.487 Y96.826 E81.05771
G1 X145.41 Y96.763 E81.14514
G1 X152.012 Y96.763 E81.76903
G1 X152.75 Y96.803 E81.83887
G1 X153.478 Y96.922 E81.90858
G1 X154.19 Y97.12 E81.97842
G1 X154.876 Y97.393 E82.04819
G1 X155.529 Y97.739 E82.11803
G1 X156.141 Y98.153 E82.18785
G1 X156.838 Y98.762 E82.27532
G1 X156.941 Y98.865 E82.28908
G1 X157.434 Y99.415 E82.35888
G1 X157.865 Y100.015 E82.42869
G1 X158.229 Y100.658 E82.49852
G1 X158.521 Y101.336 E82.56828
G1 X158.738 Y102.042 E82.63807
G1 X158.877 Y102.768 E82.70793
G1 X158.94 Y103.707 E82.79686
G1 X158.913 Y114.897 E83.85432
G1 X158.829 Y115.948 E83.95396
G1 X158.744 Y116.485 E84.00534
G1 X158.491 Y117.535 E84.1074
G1 X158.164 Y118.537 E84.207
G1 X157.897 Y119.226 E84.27683
G1 X157.576 Y119.85 E84.34315
G1 X157.044 Y120.765 E84.44317
G1 X156.448 Y121.63 E84.54243
G1 X156.12 Y122.035 E84.59168
G1 X155.38 Y122.815 E84.69329
G1 X154.596 Y123.52 E84.79292
G1 X154.02 Y123.983 E84.86276
G1 X153.456 Y124.349 E84.9263
G1 X152.549 Y124.875 E85.02538
G1 X151.589 Y125.336 E85.12602
G1 X151.088 Y125.53 E85.17679
G1 X150.05 Y125.839 E85.27913
G1 X149.025 Y126.058 E85.37818
G1 X148.295 Y126.173 E85.44802
G1 X147.602 Y126.209 E85.51359
G1 X75.952 Y126.238 E92.28452
G1 X75.239 Y126.201 E92.35199
G1 X74.187 Y126.091 E92.45195
G1 X73.155 Y125.902 E92.55109
G1 X72.636 Y125.765 E92.60182
G1 X71.602 Y125.401 E92.70541
G1 X70.643 Y124.974 E92.80461
G1 X69.985 Y124.637 E92.87447
G1 X69.404 Y124.258 E92.94003
G1 X68.538 Y123.628 E93.04123
G1 X67.965 Y123.162 E93.11102
G1 X67.481 Y122.676 E93.17584
G1 X66.784 Y121.902 E93.27427
G1 X66.32 Y121.327 E93.34409
G1 X65.956 Y120.765 E93.40737
G1 X65.424 Y119.85 E93.50739
G1 X65.088 Y119.193 E93.57712
G1 X64.834 Y118.532 E93.64404
G1 X64.508 Y117.53 E93.74361
G1 X64.318 Y116.816 E93.81343
G1 X64.211 Y116.139 E93.87821
G1 X64.098 Y115.076 E93.97922
G1 X64.06 Y114.355 E94.04745
G1 X64.06 Y103.691 E95.0552
G1 X64.1 Y102.953 E95.12505
G1 X64.219 Y102.225 E95.19475
G1 X64.417 Y101.513 E95.26459
G1 X64.69 Y100.827 E95.33436
G1 X65.036 Y100.174 E95.4042
G1 X65.45 Y99.562 E95.47402
G1 X66.059 Y98.865 E95.56149
G1 X66.162 Y98.762 E95.57526
G1 X66.712 Y98.269 E95.64505
G1 X67.312 Y97.838 E95.71487
G0 F4500 X67.532 Y98.113
G1 F1800 X68.161 Y97.763 E95.78289
G1 X68.824 Y97.485 E95.85083
G1 X69.515 Y97.283 E95.91886
G1 X70.223 Y97.158 E95.9868
G1 X70.988 Y97.113 E96.05922
G1 X77.59 Y97.113 E96.68311
G1 X78.308 Y97.153 E96.75106
G1 X79.018 Y97.272 E96.81909
G1 X79.71 Y97.47 E96.88711
G1 X80.375 Y97.743 E96.95504
G1 X81.007 Y98.088 E97.02309
G1 X81.596 Y98.501 E97.09107
G1 X82.169 Y99.009 E97.16343
G1 X82.272 Y99.112 E97.1772
G1 X82.751 Y99.649 E97.2452
G1 X83.168 Y100.235 E97.31317
G1 X83.518 Y100.864 E97.38119
G1 X83.796 Y101.527 E97.44913
G1 X83.998 Y102.218 E97.51716
G1 X84.123 Y102.926 E97.5851
G1 X84.168 Y103.691 E97.65752
G1 X84.168 Y109.05 E98.16394
G1 X138.832 Y109.05 E103.32969
G1 X138.832 Y103.691 E103.83612
G1 X138.872 Y102.973 E103.90407
G1 X138.991 Y102.263 E103.9721
G1 X139.189 Y101.571 E104.04012
G1 X139.462 Y100.906 E104.10805
G1 X139.807 Y100.274 E104.1761
G1 X140.22 Y99.685 E104.24408
G1 X140.728 Y99.112 E104.31644
G1 X140.831 Y99.009 E104.33021
G1 X141.368 Y98.53 E104.39821
G1 X141.954 Y98.113 E104.46618
G1 X142.583 Y97.763 E104.5342
G1 X143.246 Y97.485 E104.60214
G1 X143.937 Y97.283 E104.67017
G1 X144.645 Y97.158 E104.73811
G1 X145.41 Y97.113 E104.81053
G1 X152.012 Y97.113 E105.43442
G1 X152.73 Y97.153 E105.50237
G1 X153.44 Y97.272 E105.5704
G1 X154.132 Y97.47 E105.63842
G1 X154.797 Y97.743 E105.70635
G1 X155.429 Y98.088 E105.7744
G1 X156.018 Y98.501 E105.84238
G1 X156.591 Y99.009 E105.91474
G1 X156.694 Y99.112 E105.92851
G1 X157.173 Y99.649 E105.99651
G1 X157.59 Y100.235 E106.06448
G1 X157.94 Y100.864 E106.1325
G1 X158.218 Y101.527 E106.20044
G1 X158.42 Y102.218 E106.26847
G1 X158.545 Y102.926 E106.33641
G1 X158.59 Y103.707 E106.41034
G1 X158.563 Y114.897 E107.4678
